; generated by Slic3r 1.2.6-dev on 2015-01-30 at 07:26:13

; external perimeters extrusion width = 0.50mm
; perimeters extrusion width = 0.50mm
; infill extrusion width = 0.40mm
; solid infill extrusion width = 0.50mm
; top infill extrusion width = 0.50mm

; external perimeters extrusion width = 0.50mm
; perimeters extrusion width = 0.60mm
; infill extrusion width = 0.40mm
; solid infill extrusion width = 0.50mm
; top infill extrusion width = 0.50mm

M190 S90 ; set bed temperature
M104 S225 ; set temperature
G28 ; home all axes
G92 E0.0 ; reset extruder
M109 S225 ; wait for temperature to be reached
G21 ; set units to millimeters
G90 ; use absolute coordinates
M83 ; use relative distances for extrusion
G1 E-1.40000 F1800.00000
G1 Z0.300 F7800.000
G1 X61.141 Y61.561 F7800.000
G1 E1.40000 F1800.00000
M204 S500
G1 X63.430 Y59.412 E0.21187 F1080.000
G1 X64.933 Y58.169 E0.13158
G1 X67.473 Y56.323 E0.21183
G1 X69.120 Y55.278 E0.13165
G1 X71.871 Y53.765 E0.21184
G1 X73.637 Y52.935 E0.13166
G1 X76.556 Y51.779 E0.21184
G1 X78.411 Y51.176 E0.13161
G1 X81.455 Y50.395 E0.21204
G1 X83.368 Y50.030 E0.13144
G1 X86.480 Y49.637 E0.21164
G1 X88.430 Y49.514 E0.13183
G1 X91.570 Y49.514 E0.21183
G1 X93.517 Y49.636 E0.13164
G1 X96.632 Y50.030 E0.21183 F1080.000
G1 X98.548 Y50.395 E0.13164
G1 X101.595 Y51.178 E0.21226
G1 X103.444 Y51.779 E0.13119
G1 X106.363 Y52.935 E0.21184
G1 X108.129 Y53.765 E0.13166
G1 X110.880 Y55.278 E0.21184
G1 X112.527 Y56.323 E0.13165
G1 X115.067 Y58.169 E0.21183
G1 X116.570 Y59.412 E0.13162
G1 X118.861 Y61.563 E0.21205
G1 X120.195 Y62.984 E0.13144
G1 X122.196 Y65.403 E0.21184
G1 X123.342 Y66.981 E0.13161
G1 X125.025 Y69.632 E0.21184
G1 X125.965 Y71.342 E0.13166
G1 X127.302 Y74.182 E0.21183
G1 X128.020 Y75.996 E0.13162
G1 X128.990 Y78.982 E0.21183
G1 X129.475 Y80.872 E0.13165
G1 X130.063 Y83.956 E0.21184
G1 X130.308 Y85.891 E0.13166
G1 X130.506 Y89.035 E0.21253
G1 X130.506 Y90.965 E0.13025
G1 X130.308 Y94.109 E0.21251
G1 X130.063 Y96.044 E0.13166
G1 X129.475 Y99.128 E0.21184
G1 X128.990 Y101.018 E0.13165
G1 X128.020 Y104.004 E0.21183
G1 X127.302 Y105.818 E0.13162
G1 X125.965 Y108.658 E0.21183
G1 X125.025 Y110.368 E0.13166
G1 X123.342 Y113.019 E0.21184
G1 X122.196 Y114.597 E0.13161
G1 X120.195 Y117.016 E0.21184
G1 X118.857 Y118.441 E0.13185
G1 X116.570 Y120.588 E0.21164
G1 X115.067 Y121.831 E0.13162
G1 X112.527 Y123.677 E0.21183
G1 X110.880 Y124.722 E0.13165
G1 X108.129 Y126.235 E0.21184
G1 X106.368 Y127.064 E0.13132
G1 X103.444 Y128.221 E0.21217
G1 X101.589 Y128.824 E0.13161
G1 X98.548 Y129.605 E0.21183
G1 X96.640 Y129.969 E0.13105
G1 X93.517 Y130.364 E0.21243
G1 X91.570 Y130.486 E0.13164
G1 X88.430 Y130.486 E0.21183
G1 X86.483 Y130.364 E0.13164
G1 X83.368 Y129.970 E0.21183
G1 X81.455 Y129.605 E0.13144
G1 X78.411 Y128.824 E0.21204
G1 X76.556 Y128.221 E0.13161
G1 X73.637 Y127.065 E0.21184
G1 X71.874 Y126.236 E0.13146
G1 X69.120 Y124.722 E0.21203
G1 X67.470 Y123.675 E0.13184
G1 X64.933 Y121.831 E0.21164
G1 X63.430 Y120.588 E0.13162
G1 X61.141 Y118.439 E0.21183
G1 X59.805 Y117.016 E0.13166
G1 X57.804 Y114.597 E0.21184
G1 X56.659 Y113.021 E0.13143
G1 X54.975 Y110.368 E0.21202
G1 X54.035 Y108.658 E0.13166
G1 X52.698 Y105.818 E0.21183
G1 X51.980 Y104.004 E0.13162
G1 X51.010 Y101.018 E0.21183
G1 X50.526 Y99.132 E0.13138
G1 X49.937 Y96.044 E0.21210
G1 X49.692 Y94.114 E0.13127
G1 X49.495 Y90.975 E0.21222
G1 X49.495 Y89.025 E0.13162
G1 X49.692 Y85.886 E0.21222
G1 X49.937 Y83.956 E0.13127
G1 X50.526 Y80.867 E0.21217
G1 X51.010 Y78.982 E0.13132
G1 X51.980 Y75.996 E0.21184
G1 X52.698 Y74.182 E0.13162
G1 X54.035 Y71.342 E0.21183
G1 X54.975 Y69.632 E0.13166
G1 X56.659 Y66.979 E0.21202
G1 X57.804 Y65.403 E0.13143
G1 X59.805 Y62.984 E0.21184
G1 X61.100 Y61.605 E0.12761
M204 S1000
G1 E-1.40000 F1800.00000
G1 X62.749 Y63.361 F7800.000
G1 E1.40000 F1800.00000
M204 S500
G1 X65.382 Y60.889 E0.24371 F1080.000
G1 X66.017 Y60.363 E0.05563
G1 X69.222 Y58.035 E0.26729
G1 X69.920 Y57.591 E0.05578
G1 X73.394 Y55.682 E0.26748
G1 X74.141 Y55.330 E0.05571
G1 X77.827 Y53.871 E0.26748
G1 X78.611 Y53.616 E0.05567
G1 X82.050 Y52.733 E0.23952
G1 X82.453 Y52.629 E0.02810
G1 X83.262 Y52.475 E0.05557
G1 X87.196 Y51.978 E0.26753
G1 X88.018 Y51.927 E0.05560
G1 X91.982 Y51.927 E0.26746
G1 X92.805 Y51.978 E0.05565
G1 X96.738 Y52.475 E0.26743 F1080.000
G1 X97.548 Y52.630 E0.05569
G1 X101.392 Y53.617 E0.26777
G1 X102.174 Y53.871 E0.05546
G1 X105.859 Y55.330 E0.26739
G1 X106.605 Y55.681 E0.05566
G1 X110.077 Y57.590 E0.26737
G1 X110.775 Y58.033 E0.05574
G1 X113.981 Y60.362 E0.26742
G1 X114.618 Y60.889 E0.05571
G1 X117.509 Y63.604 E0.26766
G1 X118.073 Y64.204 E0.05557
G1 X120.596 Y67.254 E0.26706
G1 X121.083 Y67.924 E0.05589
G1 X123.206 Y71.268 E0.26723
G1 X123.605 Y71.994 E0.05592
G1 X125.292 Y75.578 E0.26729
G1 X125.597 Y76.348 E0.05586
G1 X126.822 Y80.118 E0.26745
G1 X127.027 Y80.918 E0.05575
G1 X127.770 Y84.812 E0.26752
G1 X127.874 Y85.631 E0.05567
G1 X128.123 Y89.592 E0.26779
G1 X128.123 Y90.408 E0.05506
G1 X127.874 Y94.370 E0.26783
G1 X127.770 Y95.190 E0.05580
G1 X127.027 Y99.082 E0.26733
G1 X126.822 Y99.882 E0.05575
G1 X125.597 Y103.652 E0.26745
G1 X125.292 Y104.422 E0.05586
G1 X123.605 Y108.006 E0.26727
G1 X123.206 Y108.731 E0.05587
G1 X121.084 Y112.075 E0.26725
G1 X120.597 Y112.744 E0.05580
G1 X118.074 Y115.795 E0.26715
G1 X117.511 Y116.394 E0.05545
G1 X114.617 Y119.112 E0.26787
G1 X113.980 Y119.639 E0.05580
G1 X110.774 Y121.968 E0.26735
G1 X110.075 Y122.411 E0.05588
G1 X106.606 Y124.318 E0.26709
G1 X105.861 Y124.669 E0.05552
G1 X102.172 Y126.130 E0.26776
G1 X101.386 Y126.385 E0.05577
G1 X97.550 Y127.370 E0.26717
G1 X96.744 Y127.524 E0.05540
G1 X92.805 Y128.022 E0.26787
G1 X91.982 Y128.073 E0.05565
G1 X88.016 Y128.073 E0.26762
G1 X87.189 Y128.021 E0.05592
G1 X83.262 Y127.525 E0.26704
G1 X82.453 Y127.371 E0.05557
G1 X78.610 Y126.384 E0.26774
G1 X77.822 Y126.128 E0.05590
G1 X74.142 Y124.670 E0.26706
G1 X73.397 Y124.320 E0.05558
G1 X69.922 Y122.409 E0.26756
G1 X69.227 Y121.969 E0.05553
G1 X66.017 Y119.636 E0.26772
G1 X65.380 Y119.110 E0.05574
G1 X62.492 Y116.397 E0.26739
G1 X61.926 Y115.794 E0.05577
G1 X59.401 Y112.742 E0.26729
G1 X58.917 Y112.076 E0.05556
G1 X56.792 Y108.727 E0.26761
G1 X56.394 Y108.004 E0.05567
G1 X54.706 Y104.417 E0.26748
G1 X54.403 Y103.650 E0.05565
G1 X53.178 Y99.881 E0.26742
G1 X52.973 Y99.084 E0.05554
G1 X52.230 Y95.188 E0.26758
G1 X52.127 Y94.372 E0.05549
G1 X51.877 Y90.412 E0.26773
G1 X51.877 Y89.588 E0.05564
G1 X52.100 Y86.044 E0.23955
G1 X52.127 Y85.628 E0.02818
G1 X52.230 Y84.812 E0.05549
G1 X52.973 Y80.916 E0.26762
G1 X53.178 Y80.119 E0.05551
G1 X54.402 Y76.351 E0.26733
G1 X54.706 Y75.583 E0.05570
G1 X56.393 Y71.997 E0.26740
G1 X56.791 Y71.273 E0.05573
G1 X58.917 Y67.924 E0.26764
G1 X59.401 Y67.258 E0.05556
G1 X61.927 Y64.204 E0.26744
G1 X62.492 Y63.603 E0.05567
G1 X62.705 Y63.402 E0.01975
M204 S1000
G1 X63.072 Y63.793 F7800.000
M204 S500
G1 X65.737 Y61.291 E0.24663 F1080.000
G1 X66.346 Y60.787 E0.05336
G1 X69.523 Y58.478 E0.26502
G1 X70.193 Y58.053 E0.05350
G1 X73.637 Y56.159 E0.26520
G1 X74.354 Y55.822 E0.05344
G1 X78.008 Y54.375 E0.26520
G1 X78.761 Y54.130 E0.05339
G1 X82.183 Y53.252 E0.23838
G1 X82.570 Y53.152 E0.02696
G1 X83.346 Y53.005 E0.05330
G1 X87.246 Y52.512 E0.26526
G1 X88.035 Y52.462 E0.05333
G1 X91.965 Y52.462 E0.26519
G1 X92.755 Y52.512 E0.05338 F1080.000
G1 X96.654 Y53.004 E0.26516
G1 X97.431 Y53.153 E0.05342
G1 X101.243 Y54.131 E0.26549
G1 X101.992 Y54.375 E0.05320
G1 X105.646 Y55.822 E0.26512
G1 X106.362 Y56.159 E0.05339
G1 X109.805 Y58.051 E0.26510
G1 X110.474 Y58.476 E0.05346
G1 X113.653 Y60.786 E0.26515
G1 X114.263 Y61.290 E0.05344
G1 X117.130 Y63.983 E0.26538
G1 X117.671 Y64.559 E0.05330
G1 X120.173 Y67.583 E0.26481
G1 X120.640 Y68.225 E0.05361
G1 X122.744 Y71.541 E0.26497
G1 X123.128 Y72.237 E0.05364
G1 X124.800 Y75.791 E0.26503
G1 X125.093 Y76.530 E0.05358
G1 X126.307 Y80.267 E0.26518
G1 X126.504 Y81.035 E0.05347
G1 X127.241 Y84.896 E0.26524
G1 X127.340 Y85.682 E0.05340
G1 X127.587 Y89.609 E0.26551
G1 X127.587 Y90.392 E0.05281
G1 X127.340 Y94.319 E0.26555
G1 X127.241 Y95.106 E0.05352
G1 X126.504 Y98.965 E0.26506
G1 X126.307 Y99.733 E0.05347
G1 X125.093 Y103.470 E0.26518
G1 X124.800 Y104.209 E0.05358
G1 X123.128 Y107.762 E0.26501
G1 X122.745 Y108.458 E0.05359
G1 X120.640 Y111.774 E0.26499
G1 X120.174 Y112.416 E0.05352
G1 X117.672 Y115.441 E0.26490
G1 X117.132 Y116.015 E0.05319
G1 X114.263 Y118.710 E0.26559
G1 X113.651 Y119.216 E0.05353
G1 X110.473 Y121.525 E0.26508
G1 X109.802 Y121.950 E0.05360
G1 X106.363 Y123.841 E0.26484
G1 X105.649 Y124.177 E0.05325
G1 X101.990 Y125.626 E0.26548
G1 X101.236 Y125.870 E0.05349
G1 X97.434 Y126.847 E0.26491
G1 X96.660 Y126.995 E0.05314
G1 X92.755 Y127.488 E0.26558
G1 X91.965 Y127.538 E0.05338
G1 X88.033 Y127.538 E0.26535
G1 X87.239 Y127.488 E0.05364
G1 X83.346 Y126.995 E0.26479
G1 X82.570 Y126.848 E0.05330
G1 X78.759 Y125.869 E0.26546
G1 X78.004 Y125.623 E0.05362
G1 X74.355 Y124.178 E0.26480
G1 X73.640 Y123.842 E0.05331
G1 X70.195 Y121.948 E0.26528
G1 X69.528 Y121.525 E0.05326
G1 X66.345 Y119.213 E0.26544
G1 X65.735 Y118.708 E0.05347
G1 X62.870 Y116.018 E0.26512
G1 X62.328 Y115.440 E0.05349
G1 X59.824 Y112.413 E0.26503
G1 X59.360 Y111.774 E0.05330
G1 X57.253 Y108.454 E0.26533
G1 X56.872 Y107.761 E0.05339
G1 X55.198 Y104.204 E0.26521
G1 X54.907 Y103.469 E0.05337
G1 X53.692 Y99.732 E0.26516
G1 X53.496 Y98.967 E0.05328
G1 X52.759 Y95.104 E0.26530
G1 X52.660 Y94.322 E0.05323
G1 X52.413 Y90.395 E0.26545
G1 X52.413 Y89.605 E0.05337
G1 X52.635 Y86.078 E0.23841
G1 X52.660 Y85.678 E0.02704
G1 X52.759 Y84.896 E0.05323
G1 X53.496 Y81.033 E0.26534
G1 X53.693 Y80.268 E0.05325
G1 X54.906 Y76.532 E0.26507
G1 X55.198 Y75.796 E0.05342
G1 X56.871 Y72.240 E0.26514
G1 X57.253 Y71.546 E0.05346
G1 X59.360 Y68.226 E0.26536
G1 X59.824 Y67.587 E0.05330
G1 X62.329 Y64.558 E0.26517
G1 X63.028 Y63.834 E0.06793
M204 S1000
G1 X63.395 Y64.224 F7800.000
M204 S500
G1 X66.091 Y61.693 E0.24954 F1080.000
G1 X66.674 Y61.210 E0.05109
G1 X69.825 Y58.921 E0.26276
G1 X70.466 Y58.514 E0.05123
G1 X73.881 Y56.637 E0.26293
G1 X74.567 Y56.314 E0.05117
G1 X78.190 Y54.879 E0.26293
G1 X78.910 Y54.645 E0.05112
G1 X82.316 Y53.771 E0.23724
G1 X82.687 Y53.675 E0.02583
G1 X83.430 Y53.534 E0.05103
G1 X87.297 Y53.045 E0.26299
G1 X88.052 Y52.998 E0.05106
G1 X91.949 Y52.998 E0.26292
G1 X92.704 Y53.045 E0.05111
G1 X96.570 Y53.534 E0.26289 F1080.000
G1 X97.315 Y53.676 E0.05115
G1 X101.093 Y54.646 E0.26320
G1 X101.811 Y54.879 E0.05094
G1 X105.433 Y56.314 E0.26286
G1 X106.118 Y56.636 E0.05112
G1 X109.532 Y58.513 E0.26284
G1 X110.173 Y58.919 E0.05119
G1 X113.325 Y61.209 E0.26288
G1 X113.909 Y61.692 E0.05116
G1 X116.751 Y64.362 E0.26310
G1 X117.269 Y64.913 E0.05103
G1 X119.750 Y67.911 E0.26255
G1 X120.197 Y68.527 E0.05133
G1 X122.283 Y71.814 E0.26271
G1 X122.650 Y72.481 E0.05135
G1 X124.308 Y76.004 E0.26277
G1 X124.588 Y76.711 E0.05130
G1 X125.793 Y80.417 E0.26291
G1 X125.981 Y81.152 E0.05120
G1 X126.712 Y84.980 E0.26297
G1 X126.807 Y85.732 E0.05113
G1 X127.051 Y89.625 E0.26322
G1 X127.051 Y90.375 E0.05057
G1 X126.807 Y94.269 E0.26326
G1 X126.711 Y95.022 E0.05124
G1 X125.981 Y98.848 E0.26280
G1 X125.793 Y99.583 E0.05120
G1 X124.588 Y103.289 E0.26291
G1 X124.308 Y103.996 E0.05130
G1 X122.650 Y107.519 E0.26274
G1 X122.284 Y108.185 E0.05131
G1 X120.197 Y111.473 E0.26273
G1 X119.751 Y112.087 E0.05124
G1 X117.270 Y115.086 E0.26264
G1 X116.753 Y115.637 E0.05093
G1 X113.908 Y118.308 E0.26330
G1 X113.323 Y118.792 E0.05125
G1 X110.172 Y121.081 E0.26282
G1 X109.530 Y121.489 E0.05131
G1 X106.119 Y123.363 E0.26258
G1 X105.436 Y123.685 E0.05099
G1 X101.809 Y125.121 E0.26320
G1 X101.087 Y125.356 E0.05121
G1 X97.317 Y126.324 E0.26265
G1 X96.576 Y126.465 E0.05088
G1 X92.704 Y126.955 E0.26329
G1 X91.949 Y127.002 E0.05111
G1 X88.050 Y127.002 E0.26307
G1 X87.290 Y126.954 E0.05136
G1 X83.430 Y126.466 E0.26253
G1 X82.687 Y126.325 E0.05103
G1 X78.909 Y125.355 E0.26318
G1 X78.185 Y125.119 E0.05134
G1 X74.568 Y123.687 E0.26255
G1 X73.883 Y123.365 E0.05104
G1 X70.467 Y121.487 E0.26301
G1 X69.829 Y121.082 E0.05099
G1 X66.674 Y118.790 E0.26316
G1 X66.089 Y118.306 E0.05119
G1 X63.249 Y115.639 E0.26285
G1 X62.730 Y115.086 E0.05122
G1 X60.248 Y112.085 E0.26276
G1 X59.803 Y111.473 E0.05103
G1 X57.714 Y108.182 E0.26305
G1 X57.349 Y107.518 E0.05112
G1 X55.690 Y103.992 E0.26294
G1 X55.411 Y103.287 E0.05110
G1 X54.207 Y99.582 E0.26289
G1 X54.019 Y98.850 E0.05101
G1 X53.288 Y95.021 E0.26303
G1 X53.194 Y94.271 E0.05096
G1 X52.949 Y90.379 E0.26317
G1 X52.949 Y89.621 E0.05110
G1 X53.169 Y86.112 E0.23727
G1 X53.194 Y85.729 E0.02590
G1 X53.288 Y84.979 E0.05096
G1 X54.019 Y81.150 E0.26307
G1 X54.207 Y80.418 E0.05098
G1 X55.411 Y76.714 E0.26280
G1 X55.690 Y76.009 E0.05115
G1 X57.348 Y72.484 E0.26287
G1 X57.714 Y71.819 E0.05118
G1 X59.803 Y68.527 E0.26308
G1 X60.248 Y67.915 E0.05103
G1 X62.731 Y64.913 E0.26290
G1 X63.351 Y64.265 E0.06048
M204 S1000
G1 X63.718 Y64.656 F7800.000
M204 S500
G1 X66.445 Y62.095 E0.25245 F1080.000
G1 X67.003 Y61.633 E0.04882
G1 X70.126 Y59.364 E0.26050
G1 X70.739 Y58.975 E0.04895
G1 X74.124 Y57.114 E0.26066
G1 X74.780 Y56.805 E0.04889
G1 X78.371 Y55.383 E0.26066
G1 X79.060 Y55.160 E0.04885
G1 X82.449 Y54.289 E0.23611
G1 X82.804 Y54.198 E0.02469
G1 X83.514 Y54.063 E0.04876
G1 X87.347 Y53.579 E0.26071
G1 X88.069 Y53.533 E0.04879
G1 X91.932 Y53.533 E0.26065
G1 X92.654 Y53.579 E0.04884 F1080.000
G1 X96.486 Y54.063 E0.26062
G1 X97.198 Y54.199 E0.04887
G1 X100.943 Y55.161 E0.26092
G1 X101.629 Y55.384 E0.04867
G1 X105.220 Y56.805 E0.26059
G1 X105.875 Y57.114 E0.04885
G1 X109.259 Y58.974 E0.26057
G1 X109.871 Y59.362 E0.04891
G1 X112.996 Y61.633 E0.26061
G1 X113.555 Y62.094 E0.04889
G1 X116.372 Y64.741 E0.26082
G1 X116.867 Y65.268 E0.04876
G1 X119.326 Y68.240 E0.26030
G1 X119.754 Y68.828 E0.04905
G1 X121.822 Y72.087 E0.26045
G1 X122.173 Y72.724 E0.04907
G1 X123.817 Y76.217 E0.26050
G1 X124.084 Y76.893 E0.04902
G1 X125.278 Y80.566 E0.26064
G1 X125.458 Y81.269 E0.04892
G1 X126.183 Y85.064 E0.26070
G1 X126.273 Y85.782 E0.04886
G1 X126.516 Y89.642 E0.26094
G1 X126.516 Y90.358 E0.04832
G1 X126.273 Y94.218 E0.26098
G1 X126.182 Y94.938 E0.04897
G1 X125.458 Y98.731 E0.26053
G1 X125.278 Y99.434 E0.04892
G1 X124.084 Y103.107 E0.26064
G1 X123.817 Y103.783 E0.04902
G1 X122.173 Y107.276 E0.26048
G1 X121.823 Y107.912 E0.04903
G1 X119.754 Y111.172 E0.26047
G1 X119.327 Y111.759 E0.04896
G1 X116.868 Y114.732 E0.26038
G1 X116.374 Y115.258 E0.04866
G1 X113.554 Y117.906 E0.26101
G1 X112.995 Y118.368 E0.04897
G1 X109.871 Y120.638 E0.26055
G1 X109.257 Y121.027 E0.04903
G1 X105.876 Y122.886 E0.26033
G1 X105.223 Y123.194 E0.04872
G1 X101.627 Y124.617 E0.26091
G1 X100.938 Y124.841 E0.04894
G1 X97.200 Y125.801 E0.26039
G1 X96.492 Y125.936 E0.04862
G1 X92.654 Y126.421 E0.26100
G1 X91.932 Y126.467 E0.04884
G1 X88.067 Y126.467 E0.26079
G1 X87.341 Y126.421 E0.04908
G1 X83.514 Y125.937 E0.26028
G1 X82.804 Y125.802 E0.04876
G1 X79.059 Y124.840 E0.26090
G1 X78.367 Y124.615 E0.04905
G1 X74.780 Y123.195 E0.26030
G1 X74.126 Y122.887 E0.04877
G1 X70.740 Y121.026 E0.26073
G1 X70.130 Y120.639 E0.04873
G1 X67.002 Y118.366 E0.26088
G1 X66.444 Y117.904 E0.04892
G1 X63.628 Y115.260 E0.26058
G1 X63.132 Y114.731 E0.04894
G1 X60.671 Y111.757 E0.26050
G1 X60.246 Y111.172 E0.04876
G1 X58.175 Y107.909 E0.26078
G1 X57.827 Y107.274 E0.04885
G1 X56.182 Y103.779 E0.26066
G1 X55.915 Y103.106 E0.04883
G1 X54.722 Y99.432 E0.26062
G1 X54.542 Y98.733 E0.04874
G1 X53.818 Y94.937 E0.26075
G1 X53.727 Y94.221 E0.04870
G1 X53.484 Y90.362 E0.26088
G1 X53.484 Y89.638 E0.04883
G1 X53.704 Y86.145 E0.23613
G1 X53.727 Y85.779 E0.02476
G1 X53.818 Y85.063 E0.04870
G1 X54.542 Y81.267 E0.26079
G1 X54.722 Y80.567 E0.04872
G1 X55.915 Y76.895 E0.26054
G1 X56.182 Y76.222 E0.04888
G1 X57.826 Y72.727 E0.26060
G1 X58.175 Y72.092 E0.04891
G1 X60.246 Y68.828 E0.26081
G1 X60.671 Y68.243 E0.04876
G1 X63.133 Y65.267 E0.26063
G1 X63.674 Y64.697 E0.05304
M204 S1000
G1 X64.041 Y65.087 F7800.000
M204 S500
G1 X66.800 Y62.497 E0.25536 F1080.000
G1 X67.331 Y62.057 E0.04654
G1 X70.427 Y59.807 E0.25823
