; generated by Slic3r 1.2.6-dev on 2015-01-30 at 13:41:05

; external perimeters extrusion width = 0.50mm
; perimeters extrusion width = 0.50mm
; infill extrusion width = 0.40mm
; solid infill extrusion width = 0.50mm
; top infill extrusion width = 0.50mm

; external perimeters extrusion width = 0.50mm
; perimeters extrusion width = 0.60mm
; infill extrusion width = 0.40mm
; solid infill extrusion width = 0.50mm
; top infill extrusion width = 0.50mm

M190 S90 ; set bed temperature
M104 S225 ; set temperature
G28 ; home all axes
G92 E0.0 ; reset extruder
M109 S225 ; wait for temperature to be reached
G21 ; set units to millimeters
G90 ; use absolute coordinates
M83 ; use relative distances for extrusion
G1 E-1.40000 F1800.00000
G1 Z0.300 F7800.000
G1 X57.636 Y61.378 F7800.000
G1 E1.40000 F1800.00000
M204 S500
G1 X59.730 Y59.412 E0.19374 F1080.000
G1 X61.233 Y58.169 E0.13162
G1 X63.773 Y56.323 E0.21183
G1 X65.420 Y55.278 E0.13165
G1 X68.176 Y53.763 E0.21218
G1 X69.937 Y52.935 E0.13131
G1 X72.857 Y51.778 E0.21193
G1 X74.711 Y51.176 E0.13152
G1 X77.754 Y50.395 E0.21201
G1 X79.668 Y50.030 E0.13144
G1 X82.780 Y49.637 E0.21162
G1 X84.730 Y49.514 E0.13188
G1 X87.870 Y49.514 E0.21183
G1 X89.817 Y49.636 E0.13164
G1 X92.932 Y50.030 E0.21183 F1080.000
G1 X94.848 Y50.395 E0.13165
G1 X97.895 Y51.178 E0.21224
G1 X99.744 Y51.779 E0.13121
G1 X102.663 Y52.935 E0.21184
G1 X104.429 Y53.765 E0.13166
G1 X107.183 Y55.280 E0.21208
G1 X108.827 Y56.323 E0.13140
G1 X111.367 Y58.169 E0.21183
G1 X112.870 Y59.412 E0.13162
G1 X115.159 Y61.561 E0.21183
G1 X116.495 Y62.984 E0.13166
G1 X118.496 Y65.403 E0.21184
G1 X119.642 Y66.981 E0.13161
G1 X121.327 Y69.635 E0.21209
G1 X122.265 Y71.342 E0.13141
G1 X123.602 Y74.184 E0.21198
G1 X124.319 Y75.994 E0.13132
G1 X125.290 Y78.982 E0.21199
G1 X125.775 Y80.872 E0.13165
G1 X126.364 Y83.959 E0.21206
G1 X126.608 Y85.891 E0.13143
G1 X126.805 Y89.025 E0.21183
G1 X126.805 Y90.975 E0.13162
G1 X126.608 Y94.109 E0.21183
G1 X126.364 Y96.041 E0.13143
G1 X125.775 Y99.128 E0.21206
G1 X125.290 Y101.018 E0.13165
G1 X124.320 Y104.004 E0.21183
G1 X123.602 Y105.816 E0.13147
G1 X122.265 Y108.658 E0.21198
G1 X121.325 Y110.368 E0.13166
G1 X119.642 Y113.019 E0.21184
G1 X118.496 Y114.597 E0.13161
G1 X116.495 Y117.016 E0.21184
G1 X115.159 Y118.439 E0.13166
G1 X112.870 Y120.588 E0.21183
G1 X111.368 Y121.831 E0.13157
G1 X108.827 Y123.677 E0.21188
G1 X107.180 Y124.722 E0.13165
G1 X103.892 Y126.516 E0.25272
G1 X102.663 Y127.065 E0.09082
G1 X99.744 Y128.221 E0.21184
G1 X97.889 Y128.824 E0.13161
G1 X94.848 Y129.605 E0.21183
G1 X92.932 Y129.970 E0.13165
G1 X89.817 Y130.364 E0.21183
G1 X87.870 Y130.486 E0.13164
G1 X84.730 Y130.486 E0.21183
G1 X82.808 Y130.367 E0.12994
G1 X79.668 Y129.970 E0.21354
G1 X77.752 Y129.605 E0.13165
G1 X74.711 Y128.824 E0.21184
G1 X72.856 Y128.221 E0.13161
G1 X69.937 Y127.065 E0.21184
G1 X68.168 Y126.233 E0.13190
G1 X65.420 Y124.722 E0.21160
G1 X63.773 Y123.677 E0.13165
G1 X61.233 Y121.831 E0.21183
G1 X59.730 Y120.588 E0.13162
G1 X57.441 Y118.439 E0.21183
G1 X56.105 Y117.016 E0.13166
G1 X54.104 Y114.597 E0.21184
G1 X52.959 Y113.021 E0.13145
G1 X51.275 Y110.368 E0.21200
G1 X50.335 Y108.658 E0.13166
G1 X48.998 Y105.818 E0.21183
G1 X48.282 Y104.009 E0.13128
G1 X47.310 Y101.018 E0.21218
G1 X46.825 Y99.130 E0.13152
G1 X46.237 Y96.044 E0.21197
G1 X45.992 Y94.113 E0.13138
G1 X45.795 Y90.975 E0.21211
G1 X45.795 Y89.025 E0.13162
G1 X45.992 Y85.891 E0.21183
G1 X46.237 Y83.956 E0.13165
G1 X46.826 Y80.865 E0.21226
G1 X47.310 Y78.982 E0.13122
G1 X48.279 Y75.999 E0.21160
G1 X48.998 Y74.182 E0.13185
G1 X50.336 Y71.340 E0.21194
G1 X51.275 Y69.632 E0.13155
G1 X52.941 Y67.007 E0.20975
G1 X54.104 Y65.403 E0.13369
G1 X56.105 Y62.984 E0.21184
G1 X57.593 Y61.419 E0.14568
M204 S1000
G1 E-1.40000 F1800.00000
G1 X57.753 Y115.222 F7800.000
G1 E1.40000 F1800.00000
M204 S500
G1 X56.285 Y113.463 E0.15457 F1080.000
G1 X55.383 Y112.337 E0.09738
G1 X53.092 Y108.727 E0.28850
G1 X52.694 Y108.004 E0.05567
G1 X50.565 Y103.480 E0.33740
G1 X50.380 Y102.658 E0.05684
G1 X49.478 Y99.881 E0.19702
G1 X49.273 Y99.083 E0.05560
G1 X48.530 Y95.188 E0.26752
G1 X48.426 Y94.371 E0.05554
G1 X48.177 Y90.412 E0.26766
G1 X48.177 Y89.588 E0.05564
G1 X48.426 Y85.631 E0.26748
G1 X48.530 Y84.813 E0.05566
G1 X49.195 Y81.326 E0.23952
G1 X49.273 Y80.915 E0.02824
G1 X49.478 Y80.118 E0.05547
G1 X50.703 Y76.349 E0.26743
G1 X51.006 Y75.583 E0.05562
G1 X52.695 Y71.995 E0.26754
G1 X53.092 Y71.273 E0.05562
G1 X55.216 Y67.926 E0.26746
G1 X55.700 Y67.259 E0.05564
G1 X58.226 Y64.205 E0.26739
G1 X58.792 Y63.603 E0.05572
G1 X61.682 Y60.889 E0.26751
G1 X62.317 Y60.363 E0.05564
G1 X65.524 Y58.033 E0.26743
G1 X66.221 Y57.591 E0.05569
G1 X69.698 Y55.680 E0.26773
G1 X70.442 Y55.330 E0.05551
G1 X74.128 Y53.870 E0.26747
G1 X74.912 Y53.616 E0.05560
G1 X78.349 Y52.733 E0.23944
G1 X78.753 Y52.630 E0.02813
G1 X79.562 Y52.475 E0.05557
G1 X83.497 Y51.978 E0.26765
G1 X84.319 Y51.927 E0.05553
G1 X88.282 Y51.927 E0.26743
G1 X89.105 Y51.978 E0.05565
G1 X93.036 Y52.475 E0.26730
G1 X93.848 Y52.630 E0.05578
G1 X97.692 Y53.617 E0.26780
G1 X98.474 Y53.871 E0.05547
G1 X102.158 Y55.330 E0.26734
G1 X102.905 Y55.681 E0.05570
G1 X106.381 Y57.592 E0.26767
G1 X107.076 Y58.033 E0.05555
G1 X110.281 Y60.362 E0.26726
G1 X110.917 Y60.888 E0.05575
G1 X113.806 Y63.601 E0.26740
G1 X114.372 Y64.203 E0.05575
G1 X116.899 Y67.258 E0.26748
G1 X117.384 Y67.925 E0.05567
G1 X119.510 Y71.275 E0.26767
G1 X119.906 Y71.996 E0.05555
G1 X121.417 Y75.207 E0.23940
G1 X121.594 Y75.584 E0.02811
G1 X121.897 Y76.350 E0.05557
G1 X126.079 Y89.217 E0.91287
G1 X124.627 Y89.689 E0.10300
G1 X124.423 Y89.970 E0.02347
G1 X124.423 Y90.417 E0.03013
G1 X124.174 Y94.368 E0.26712
G1 X124.071 Y95.185 E0.05557
G1 X123.873 Y96.223 E0.07131
G1 X124.004 Y96.526 E0.02224
G1 X126.319 Y97.995 E0.18499
G1 X112.251 Y120.158 E1.77124
G1 X110.962 Y119.340 E0.10300
G1 X110.615 Y119.362 E0.02349
G1 X110.283 Y119.637 E0.02908
G1 X107.075 Y121.967 E0.26755
G1 X106.378 Y122.410 E0.05572
G1 X103.799 Y123.827 E0.19856
G1 X103.649 Y124.121 E0.02224
G1 X103.906 Y126.152 E0.13811
G1 X97.689 Y126.937 E0.42282
G1 X97.602 Y126.964 E0.00612
G1 X91.297 Y130.116 E0.47567
G1 X90.226 Y128.073 E0.15566
G1 X89.929 Y127.918 E0.02263
G1 X89.105 Y128.022 E0.05598
G1 X88.282 Y128.073 E0.05565
G1 X84.323 Y128.073 E0.26713
G1 X83.511 Y128.023 E0.05493
G1 X82.448 Y127.889 E0.07227
G1 X82.154 Y128.039 E0.02224
G1 X80.833 Y130.442 E0.18504
G1 X56.847 Y117.255 E1.84690
G1 X57.784 Y115.550 E0.13127
G1 X57.758 Y115.282 E0.01819
M204 S1000
G1 X58.398 Y115.161 F7800.000
M204 S500
G1 X56.685 Y113.106 E0.18055 F1080.000
G1 X55.819 Y112.025 E0.09341
G1 X53.553 Y108.454 E0.28537
G1 X53.172 Y107.761 E0.05340
G1 X51.075 Y103.305 E0.33228
G1 X50.897 Y102.516 E0.05455
G1 X49.992 Y99.731 E0.19759
G1 X49.796 Y98.966 E0.05333
G1 X49.059 Y95.104 E0.26524
G1 X48.960 Y94.321 E0.05328
G1 X48.713 Y90.395 E0.26538
G1 X48.713 Y89.604 E0.05337
G1 X48.960 Y85.682 E0.26521
G1 X49.059 Y84.897 E0.05339
G1 X49.721 Y81.426 E0.23838
G1 X49.796 Y81.032 E0.02710
G1 X49.993 Y80.268 E0.05321
G1 X51.207 Y76.531 E0.26516
G1 X51.498 Y75.795 E0.05335
G1 X53.172 Y72.238 E0.26527
G1 X53.553 Y71.545 E0.05335
G1 X55.659 Y68.227 E0.26519
G1 X56.124 Y67.587 E0.05337
G1 X58.628 Y64.559 E0.26513
G1 X59.171 Y63.982 E0.05345
G1 X62.036 Y61.291 E0.26524
G1 X62.646 Y60.787 E0.05337
G1 X65.825 Y58.477 E0.26516
G1 X66.494 Y58.052 E0.05342
G1 X69.941 Y56.157 E0.26545
G1 X70.655 Y55.821 E0.05325
G1 X74.310 Y54.375 E0.26520
G1 X75.061 Y54.130 E0.05333
G1 X78.482 Y53.252 E0.23830
G1 X78.870 Y53.153 E0.02699
G1 X79.646 Y53.005 E0.05330
G1 X83.548 Y52.512 E0.26537
G1 X84.336 Y52.462 E0.05326
G1 X88.265 Y52.462 E0.26516
G1 X89.055 Y52.512 E0.05338
G1 X92.952 Y53.004 E0.26504
G1 X93.731 Y53.153 E0.05350
G1 X97.542 Y54.131 E0.26552
G1 X98.292 Y54.375 E0.05321
G1 X101.945 Y55.821 E0.26507
G1 X102.661 Y56.158 E0.05343
G1 X106.108 Y58.053 E0.26539
G1 X106.775 Y58.477 E0.05328
G1 X109.952 Y60.785 E0.26500
G1 X110.563 Y61.290 E0.05348
G1 X113.428 Y63.980 E0.26513
G1 X113.970 Y64.558 E0.05348
G1 X116.476 Y67.586 E0.26521
G1 X116.941 Y68.227 E0.05340
G1 X119.048 Y71.548 E0.26539
G1 X119.429 Y72.240 E0.05329
G1 X120.932 Y75.435 E0.23827
G1 X121.102 Y75.797 E0.02698
G1 X121.393 Y76.531 E0.05330
G1 X125.404 Y88.873 E0.87561
G1 X124.092 Y89.300 E0.09311
G1 X123.887 Y89.582 E0.02347
G1 X123.887 Y90.400 E0.05522
G1 X123.640 Y94.318 E0.26487
G1 X123.541 Y95.101 E0.05330
G1 X123.278 Y96.480 E0.09473
G1 X123.409 Y96.783 E0.02224
G1 X125.579 Y98.160 E0.17342
G1 X112.086 Y119.419 E1.69895
G1 X110.921 Y118.679 E0.09313
G1 X110.573 Y118.701 E0.02349
G1 X109.954 Y119.213 E0.05420
G1 X106.774 Y121.524 E0.26527
G1 X106.105 Y121.948 E0.05345
G1 X103.222 Y123.533 E0.22199
G1 X103.072 Y123.827 E0.02224
G1 X103.307 Y125.687 E0.12653
G1 X97.531 Y126.417 E0.39285
G1 X97.444 Y126.444 E0.00612
G1 X91.527 Y129.402 E0.44638
G1 X90.528 Y127.495 E0.14529
G1 X90.230 Y127.340 E0.02263
G1 X89.055 Y127.488 E0.07994
G1 X88.265 Y127.538 E0.05338
G1 X84.340 Y127.538 E0.26487
G1 X83.560 Y127.489 E0.05269
G1 X82.154 Y127.312 E0.09566
G1 X81.860 Y127.462 E0.02224
G1 X80.622 Y129.715 E0.17346
G1 X57.574 Y117.044 E1.77462
G1 X58.429 Y115.490 E0.11969
G1 X58.403 Y115.221 E0.01819
M204 S1000
G1 X59.042 Y115.101 F7800.000
M204 S500
G1 X57.084 Y112.748 E0.20654 F1080.000
G1 X56.256 Y111.713 E0.08943
G1 X54.014 Y108.182 E0.28224
G1 X53.649 Y107.518 E0.05112
G1 X51.585 Y103.130 E0.32715
G1 X51.414 Y102.375 E0.05227
G1 X50.507 Y99.582 E0.19816
G1 X50.319 Y98.849 E0.05106
G1 X49.588 Y95.020 E0.26297
G1 X49.493 Y94.270 E0.05101
G1 X49.469 Y93.889 E0.02579
G1 X49.249 Y90.379 E0.23731
G1 X49.249 Y89.621 E0.05110
G1 X49.493 Y85.732 E0.26294
G1 X49.588 Y84.981 E0.05112
G1 X50.319 Y81.149 E0.26320
G1 X50.507 Y80.418 E0.05095
G1 X51.711 Y76.712 E0.26289
G1 X51.990 Y76.008 E0.05108
G1 X53.486 Y72.828 E0.23716
G1 X53.650 Y72.481 E0.02584
G1 X54.014 Y71.818 E0.05108
G1 X56.102 Y68.528 E0.26292
G1 X56.547 Y67.915 E0.05110
G1 X59.031 Y64.914 E0.26286
G1 X59.550 Y64.361 E0.05118
G1 X62.391 Y61.693 E0.26297
G1 X62.974 Y61.210 E0.05110
G1 X66.126 Y58.920 E0.26289
G1 X66.766 Y58.514 E0.05115
G1 X70.184 Y56.635 E0.26317
G1 X70.868 Y56.313 E0.05098
G1 X74.491 Y54.879 E0.26293
G1 X75.211 Y54.645 E0.05106
G1 X78.615 Y53.771 E0.23717
G1 X78.987 Y53.676 E0.02586
G1 X79.730 Y53.534 E0.05103
G1 X83.598 Y53.045 E0.26310
G1 X84.352 Y52.998 E0.05100
G1 X88.249 Y52.998 E0.26289
G1 X89.004 Y53.045 E0.05111
G1 X92.868 Y53.533 E0.26277
G1 X93.614 Y53.676 E0.05123
G1 X97.393 Y54.646 E0.26323
G1 X98.111 Y54.879 E0.05094
G1 X101.732 Y56.313 E0.26281
G1 X102.418 Y56.636 E0.05115
G1 X105.835 Y58.515 E0.26311
G1 X106.474 Y58.920 E0.05102
G1 X109.624 Y61.209 E0.26274
G1 X110.209 Y61.692 E0.05120
G1 X113.049 Y64.359 E0.26286
G1 X113.568 Y64.912 E0.05120
G1 X116.052 Y67.915 E0.26294
G1 X116.498 Y68.528 E0.05113
G1 X118.587 Y71.820 E0.26311
G1 X118.951 Y72.483 E0.05102
G1 X120.448 Y75.664 E0.23719
G1 X120.611 Y76.009 E0.02578
G1 X120.889 Y76.713 E0.05103
G1 X124.729 Y88.529 E0.83835
G1 X123.532 Y88.919 E0.08491
G1 X123.326 Y89.222 E0.02474
G1 X123.351 Y89.621 E0.02693
G1 X123.351 Y90.383 E0.05144
G1 X123.107 Y94.267 E0.26261
G1 X123.012 Y95.018 E0.05103
G1 X122.684 Y96.738 E0.11815
G1 X122.815 Y97.040 E0.02224
G1 X124.840 Y98.325 E0.16184
G1 X111.921 Y118.680 E1.62666
G1 X110.859 Y118.005 E0.08488
G1 X110.494 Y118.040 E0.02475
G1 X110.209 Y118.307 E0.02633
G1 X109.626 Y118.790 E0.05108
G1 X106.473 Y121.081 E0.26300
G1 X105.832 Y121.487 E0.05118
G1 X102.645 Y123.239 E0.24542
G1 X102.495 Y123.533 E0.02224
G1 X102.709 Y125.223 E0.11495
G1 X97.373 Y125.897 E0.36288
G1 X97.286 Y125.924 E0.00612
G1 X91.758 Y128.688 E0.41708
G1 X90.830 Y126.917 E0.13492
G1 X90.532 Y126.762 E0.02263
G1 X89.004 Y126.955 E0.10390
G1 X88.249 Y127.002 E0.05111
G1 X84.356 Y127.002 E0.26261
G1 X83.610 Y126.956 E0.05045
G1 X81.860 Y126.735 E0.11904
G1 X81.566 Y126.885 E0.02224
G1 X80.410 Y128.987 E0.16188
G1 X58.301 Y116.833 E1.70234
G1 X59.073 Y115.429 E0.10811
G1 X59.048 Y115.160 E0.01819
M204 S1000
G1 X59.686 Y115.002 F7800.000
M204 S500
G1 X59.433 Y114.732 E0.02494 F1080.000
G1 X57.484 Y112.390 E0.20561
G1 X56.692 Y111.401 E0.08546
G1 X54.475 Y107.909 E0.27911
G1 X54.126 Y107.274 E0.04885
G1 X52.094 Y102.956 E0.32202
G1 X51.932 Y102.233 E0.04998
G1 X51.022 Y99.432 E0.19873
G1 X50.842 Y98.732 E0.04879
G1 X50.118 Y94.936 E0.26070
G1 X50.027 Y94.220 E0.04874
G1 X50.004 Y93.855 E0.02466
G1 X49.784 Y90.362 E0.23616
G1 X49.784 Y89.638 E0.04883
G1 X50.027 Y85.783 E0.26066
G1 X50.117 Y85.064 E0.04885
G1 X50.842 Y81.266 E0.26091
G1 X51.022 Y80.567 E0.04868
G1 X52.103 Y77.241 E0.23597
G1 X52.215 Y76.894 E0.02465
G1 X52.482 Y76.221 E0.04881
G1 X54.127 Y72.725 E0.26072
G1 X54.475 Y72.091 E0.04881
G1 X56.545 Y68.829 E0.26065
G1 X56.971 Y68.244 E0.04883
G1 X59.433 Y65.268 E0.26059
G1 X59.929 Y64.740 E0.04890
G1 X62.745 Y62.095 E0.26070
G1 X63.303 Y61.633 E0.04883
G1 X66.428 Y59.363 E0.26062
G1 X67.039 Y58.975 E0.04887
G1 X70.108 Y57.288 E0.23630
G1 X70.427 Y57.112 E0.02459
G1 X71.081 Y56.805 E0.04871
G1 X74.673 Y55.383 E0.26066
G1 X75.360 Y55.160 E0.04879
G1 X79.103 Y54.199 E0.26075
G1 X79.813 Y54.063 E0.04876
G1 X83.284 Y53.625 E0.23605
G1 X83.648 Y53.579 E0.02476
G1 X84.369 Y53.533 E0.04873
G1 X88.232 Y53.533 E0.26062
G1 X88.954 Y53.579 E0.04884
G1 X92.785 Y54.063 E0.26051
G1 X93.497 Y54.199 E0.04895
G1 X97.243 Y55.161 E0.26095
G1 X97.929 Y55.384 E0.04868
G1 X101.519 Y56.805 E0.26054
G1 X102.175 Y57.113 E0.04888
G1 X105.241 Y58.799 E0.23609
G1 X105.562 Y58.976 E0.02475
G1 X106.172 Y59.363 E0.04875
G1 X109.296 Y61.632 E0.26048
G1 X109.854 Y62.094 E0.04893
G1 X112.670 Y64.738 E0.26060
G1 X113.166 Y65.267 E0.04893
G1 X115.629 Y68.243 E0.26067
G1 X116.054 Y68.829 E0.04886
G1 X118.126 Y72.093 E0.26083
G1 X118.474 Y72.726 E0.04875
G1 X120.119 Y76.222 E0.26070
G1 X120.385 Y76.894 E0.04876
G1 X124.054 Y88.186 E0.80109
G1 X122.972 Y88.538 E0.07680
G1 X122.766 Y88.841 E0.02474
G1 X122.816 Y89.637 E0.05383
G1 X122.816 Y90.366 E0.04916
G1 X122.573 Y94.217 E0.26035
G1 X122.483 Y94.934 E0.04876
G1 X122.090 Y96.995 E0.14157
G1 X122.221 Y97.297 E0.02224
G1 X124.101 Y98.491 E0.15026
G1 X111.756 Y117.940 E1.55438
G1 X110.795 Y117.331 E0.07677
G1 X110.430 Y117.365 E0.02475
G1 X109.855 Y117.905 E0.05323
G1 X109.298 Y118.366 E0.04881
G1 X106.171 Y120.638 E0.26072
G1 X105.560 Y121.026 E0.04890
G1 X102.073 Y122.935 E0.26823
G1 X101.917 Y123.232 E0.02262
G1 X102.110 Y124.759 E0.10385
G1 X97.215 Y125.377 E0.33290
G1 X97.129 Y125.404 E0.00612
G1 X91.988 Y127.974 E0.38779
G1 X91.131 Y126.339 E0.12456
G1 X90.834 Y126.184 E0.02263
G1 X88.954 Y126.421 E0.12786
G1 X88.232 Y126.467 E0.04884
G1 X84.373 Y126.467 E0.26036
G1 X83.660 Y126.422 E0.04821
G1 X81.566 Y126.158 E0.14242
G1 X81.272 Y126.308 E0.02224
G1 X80.199 Y128.260 E0.15030
G1 X59.029 Y116.621 E1.63006
G1 X59.729 Y115.347 E0.09812
G1 X59.693 Y115.061 E0.01944
M204 S1000
G1 X60.343 Y114.919 F7800.000
M204 S500
G1 X59.835 Y114.378 E0.05006 F1080.000
G1 X57.883 Y112.032 E0.20590
G1 X57.128 Y111.089 E0.08148
G1 X54.937 Y107.636 E0.27598
G1 X54.604 Y107.031 E0.04658
G1 X52.604 Y102.781 E0.31690
G1 X52.449 Y102.092 E0.04770
G1 X51.536 Y99.283 E0.19930
G1 X51.365 Y98.615 E0.04652
G1 X50.647 Y94.853 E0.25843
G1 X50.560 Y94.169 E0.04647
G1 X50.320 Y90.345 E0.25854
G1 X50.320 Y89.655 E0.04656
G1 X50.560 Y85.833 E0.25839
G1 X50.647 Y85.148 E0.04657
G1 X51.365 Y81.383 E0.25863
G1 X51.536 Y80.717 E0.04642
G1 X52.720 Y77.075 E0.25835
G1 X52.974 Y76.434 E0.04654
G1 X54.456 Y73.284 E0.23488
G1 X54.604 Y72.968 E0.02356
G1 X54.937 Y72.364 E0.04654
G1 X56.989 Y69.131 E0.25838
G1 X57.394 Y68.572 E0.04656
G1 X59.835 Y65.622 E0.25832
G1 X60.308 Y65.119 E0.04663
G1 X63.100 Y62.497 E0.25842
G1 X63.631 Y62.057 E0.04656
G1 X66.729 Y59.806 E0.25835
G1 X67.312 Y59.436 E0.04660
G1 X70.364 Y57.758 E0.23503
G1 X70.671 Y57.590 E0.02358
G1 X71.294 Y57.297 E0.04645
G1 X74.854 Y55.887 E0.25839
G1 X75.510 Y55.674 E0.04652
G1 X79.220 Y54.722 E0.25847
G1 X79.897 Y54.592 E0.04650
G1 X83.351 Y54.156 E0.23492
G1 X83.699 Y54.112 E0.02362
G1 X84.386 Y54.069 E0.04646
