; generated by Slic3r 1.1.7 on 2015-07-20 at 23:04:40

; perimeters extrusion width = 0.50mm
; infill extrusion width = 0.52mm
; solid infill extrusion width = 0.52mm
; top infill extrusion width = 0.52mm

G21 ; set units to millimeters
M107
M104 S200 ; set temperature
G28 ; home all axes
G1 Z5 F5000 ; lift nozzle

M109 S200 ; wait for temperature to be reached
G90 ; use absolute coordinates
G92 E0
M82 ; use absolute distances for extrusion
G1 F1800.000 E-1.00000
G92 E0
G1 Z0.350 F7800.000
G1 X82.321 Y82.825 F7800.000
G1 E1.00000 F1800.000
G1 X84.611 Y80.747 E1.10062 F1080.000
G1 X87.148 Y78.968 E1.20141
G1 X89.885 Y77.524 E1.30210
G1 X92.776 Y76.435 E1.40262
G1 X95.796 Y75.714 E1.50364
G1 X98.870 Y75.378 E1.60423
G1 X101.965 Y75.431 E1.70494
G1 X105.029 Y75.871 E1.80565 F1080.000
G1 X108.013 Y76.691 E1.90634
G1 X110.871 Y77.879 E2.00705
G1 X113.558 Y79.416 E2.10776
G1 X116.033 Y81.280 E2.20857
G1 X118.251 Y83.435 E2.30916
G1 X119.690 Y85.175 E2.38263
G1 X120.183 Y85.853 E2.40991
G1 X121.797 Y88.494 E2.51061
G1 X122.758 Y90.537 E2.58406
G1 X123.067 Y91.317 E2.61136
G1 X123.974 Y94.276 E2.71206
G1 X124.502 Y97.326 E2.81277
G1 X124.644 Y99.579 E2.88622
G1 X124.644 Y100.418 E2.91351
G1 X124.502 Y102.672 E2.98699
G1 X124.397 Y103.503 E3.01426
G1 X123.973 Y105.726 E3.08788
G1 X123.766 Y106.534 E3.11500
G1 X123.068 Y108.681 E3.18846
G1 X122.759 Y109.461 E3.21575
G1 X121.394 Y112.239 E3.31645
G1 X120.184 Y114.146 E3.38995
G1 X119.692 Y114.824 E3.41719
G1 X117.679 Y117.175 E3.51790
G1 X115.390 Y119.252 E3.61846
G1 X112.852 Y121.032 E3.71931
G1 X110.112 Y122.478 E3.82012
G1 X107.218 Y123.567 E3.92071
G1 X104.207 Y124.286 E4.02142
G1 X101.130 Y124.622 E4.12213
G1 X98.040 Y124.570 E4.22269
G1 X94.975 Y124.130 E4.32343
G1 X91.989 Y123.309 E4.42419
G1 X89.126 Y122.119 E4.52506
G1 X86.444 Y120.585 E4.62560
G1 X83.975 Y118.727 E4.72611
G1 X81.749 Y116.565 E4.82706
G1 X80.310 Y114.825 E4.90053
G1 X79.817 Y114.147 E4.92781
G1 X78.203 Y111.506 E5.02851
G1 X76.933 Y108.683 E5.12922
G1 X76.026 Y105.724 E5.22992
G1 X75.603 Y103.504 E5.30344
G1 X75.498 Y102.674 E5.33067
G1 X75.356 Y99.582 E5.43137
G1 X75.603 Y96.497 E5.53208
G1 X76.234 Y93.466 E5.63278
G1 X76.935 Y91.311 E5.70653
G1 X77.241 Y90.539 E5.73353
G1 X78.205 Y88.490 E5.80722
G1 X78.606 Y87.761 E5.83427
G1 X79.816 Y85.855 E5.90774
G1 X80.308 Y85.176 E5.93502
G1 X82.273 Y82.882 E6.03328
G1 F1800.000 E5.03328
G92 E0
G1 X111.670 Y110.959 F7800.000
G1 E1.00000 F1800.000
G1 X110.205 Y112.335 E1.06541 F540.000
G1 X108.578 Y113.517 E1.13082
G1 X106.816 Y114.485 E1.19623
G1 X104.947 Y115.225 E1.26164
G1 X102.999 Y115.726 E1.32706
G1 X101.005 Y115.977 E1.39246
G1 X98.995 Y115.977 E1.45787
G1 X97.000 Y115.725 E1.52328
G1 X95.053 Y115.225 E1.58869
G1 X93.184 Y114.485 E1.65410
G1 X91.422 Y113.517 E1.71951
G1 X89.795 Y112.335 E1.78492
G1 X88.330 Y110.959 E1.85033
G1 X87.048 Y109.410 E1.91574
G1 X85.971 Y107.712 E1.98115
G1 X85.115 Y105.893 E2.04656
G1 X84.494 Y103.981 E2.11196
G1 X84.117 Y102.006 E2.17738
G1 X83.991 Y100.000 E2.24279
G1 X84.117 Y97.994 E2.30818
G1 X84.494 Y96.019 E2.37361
G1 X85.115 Y94.107 E2.43902
G1 X85.971 Y92.288 E2.50442
G1 X87.048 Y90.590 E2.56983
G1 X88.330 Y89.041 E2.63525
G1 X89.795 Y87.665 E2.70065
G1 X91.422 Y86.483 E2.76606
G1 X93.184 Y85.515 E2.83147
G1 X95.053 Y84.775 E2.89688
G1 X97.001 Y84.274 E2.96231
G1 X98.995 Y84.023 E3.02770
G1 X101.085 Y84.033 E3.09570
G1 X103.000 Y84.275 E3.15850 F540.000
G1 X104.947 Y84.775 E3.22392
G1 X106.816 Y85.515 E3.28932
G1 X108.578 Y86.483 E3.35473
G1 X110.205 Y87.665 E3.42015
G1 X111.670 Y89.041 E3.48555
G1 X112.952 Y90.590 E3.55097
G1 X114.029 Y92.288 E3.61638
G1 X114.885 Y94.107 E3.68178
G1 X115.506 Y96.019 E3.74719
G1 X115.883 Y97.994 E3.81261
G1 X116.009 Y100.000 E3.87801
G1 X115.883 Y102.006 E3.94340
G1 X115.506 Y103.981 E4.00883
G1 X114.885 Y105.893 E4.07424
G1 X114.029 Y107.712 E4.13965
G1 X112.952 Y109.410 E4.20506
G1 X111.718 Y110.901 E4.26803
G1 X111.190 Y110.508 F7800.000
G1 X109.785 Y111.828 E4.33075 F378.000
G1 X109.685 Y111.900 E4.33476
G1 X108.225 Y112.961 E4.39347
G1 X106.536 Y113.890 E4.45619
G1 X104.744 Y114.599 E4.51891
G1 X102.876 Y115.079 E4.58164
G1 X100.964 Y115.320 E4.64435
G1 X99.036 Y115.320 E4.70707
G1 X97.124 Y115.079 E4.76979
G1 X95.256 Y114.599 E4.83251
G1 X93.464 Y113.890 E4.89523
G1 X91.775 Y112.961 E4.95795
G1 X90.215 Y111.828 E5.02067
G1 X88.810 Y110.508 E5.08339
G1 X87.581 Y109.023 E5.14611
G1 X86.548 Y107.395 E5.20883
G1 X85.727 Y105.651 E5.27155
G1 X85.132 Y103.818 E5.33427
G1 X84.770 Y101.924 E5.39699
G1 X84.649 Y100.000 E5.45971
G1 X84.770 Y98.076 E5.52242
G1 X85.132 Y96.182 E5.58515
G1 X85.727 Y94.349 E5.64787
G1 X86.548 Y92.605 E5.71059
G1 X87.581 Y90.977 E5.77331
G1 X88.810 Y89.492 E5.83603
G1 X90.215 Y88.172 E5.89875
G1 X91.775 Y87.039 E5.96147
G1 X93.464 Y86.110 E6.02419
G1 X95.256 Y85.401 E6.08691
G1 X97.124 Y84.921 E6.14963
G1 X99.036 Y84.680 E6.21235
G1 X100.964 Y84.680 E6.27507 F378.000
G1 X102.876 Y84.921 E6.33779
G1 X104.744 Y85.401 E6.40051
G1 X106.536 Y86.110 E6.46323
G1 X108.225 Y87.039 E6.52595
G1 X109.785 Y88.172 E6.58867
G1 X111.190 Y89.492 E6.65139
G1 X112.419 Y90.977 E6.71411
G1 X113.452 Y92.605 E6.77683
G1 X114.273 Y94.349 E6.83955
G1 X114.868 Y96.182 E6.90227
G1 X115.230 Y98.076 E6.96499
G1 X115.351 Y100.000 E7.02771
G1 X115.230 Y101.924 E7.09042
G1 X114.868 Y103.818 E7.15315
G1 X114.273 Y105.651 E7.21587
G1 X113.452 Y107.395 E7.27859
G1 X112.419 Y109.023 E7.34130
G1 X111.238 Y110.451 E7.40159
G1 F1800.000 E6.40159
G92 E0
G1 X98.953 Y84.187 F7800.000
G1 X112.311 Y111.702 F7800.000
G1 E1.00000 F1800.000
G1 X110.830 Y113.092 E1.06607 F540.000
G1 X109.104 Y114.346 E1.13549
G1 X107.234 Y115.374 E1.20491
G1 X105.251 Y116.159 E1.27433
G1 X103.184 Y116.690 E1.34376
G1 X101.067 Y116.957 E1.41318
G1 X98.933 Y116.957 E1.48260
G1 X96.816 Y116.690 E1.55202
G1 X94.750 Y116.159 E1.62144
G1 X92.766 Y115.374 E1.69086
G1 X90.896 Y114.346 E1.76029
G1 X89.170 Y113.092 E1.82971
G1 X87.614 Y111.631 E1.89913
G1 X86.254 Y109.987 E1.96855
G1 X85.111 Y108.185 E2.03797
G1 X84.202 Y106.255 E2.10740
G1 X83.543 Y104.225 E2.17682
G1 X83.143 Y102.130 E2.24624
G1 X83.009 Y100.000 E2.31566
G1 X83.143 Y97.870 E2.38508
G1 X83.543 Y95.775 E2.45450
G1 X84.202 Y93.745 E2.52392
G1 X85.111 Y91.815 E2.59334
G1 X86.254 Y90.013 E2.66277
G1 X87.614 Y88.369 E2.73219
G1 X89.170 Y86.908 E2.80161
G1 X90.896 Y85.654 E2.87103
G1 X92.766 Y84.626 E2.94045
G1 X94.750 Y83.841 E3.00988
G1 X96.816 Y83.310 E3.07930
G1 X98.933 Y83.043 E3.14872
G1 X101.067 Y83.043 E3.21814 F540.000
G1 X103.184 Y83.310 E3.28756
G1 X105.250 Y83.841 E3.35698
G1 X107.234 Y84.626 E3.42640
G1 X109.104 Y85.654 E3.49583
G1 X110.830 Y86.908 E3.56525
G1 X112.386 Y88.369 E3.63467
G1 X113.746 Y90.013 E3.70409
G1 X114.889 Y91.815 E3.77351
G1 X115.798 Y93.745 E3.84293
G1 X116.457 Y95.775 E3.91236
G1 X116.857 Y97.870 E3.98178
G1 X116.991 Y100.000 E4.05120
G1 X116.857 Y102.130 E4.12062
G1 X116.457 Y104.225 E4.19004
G1 X115.798 Y106.255 E4.25946
G1 X114.889 Y108.185 E4.32889
G1 X113.746 Y109.987 E4.39831
G1 X112.365 Y111.650 E4.46863
G1 X112.761 Y112.181 F7800.000
G1 X111.250 Y113.599 E4.53605 F378.000
G1 X109.457 Y114.902 E4.60816
G1 X107.515 Y115.970 E4.68027
G1 X105.454 Y116.785 E4.75238
G1 X103.307 Y117.337 E4.82450
G1 X101.108 Y117.614 E4.89661
G1 X98.892 Y117.614 E4.96872
G1 X96.693 Y117.337 E5.04083
G1 X94.546 Y116.785 E5.11294
G1 X92.485 Y115.970 E5.18505
G1 X90.543 Y114.902 E5.25717
G1 X88.750 Y113.599 E5.32928
G1 X87.134 Y112.082 E5.40139
G1 X85.721 Y110.374 E5.47350
G1 X84.534 Y108.503 E5.54561
G1 X83.590 Y106.497 E5.61772
G1 X82.905 Y104.389 E5.68984
G1 X82.490 Y102.212 E5.76195
G1 X82.351 Y100.000 E5.83406
G1 X82.490 Y97.788 E5.90617
G1 X82.905 Y95.611 E5.97828
G1 X83.590 Y93.503 E6.05039
G1 X84.534 Y91.497 E6.12250
G1 X85.721 Y89.626 E6.19462
G1 X87.134 Y87.918 E6.26673
G1 X88.750 Y86.401 E6.33884
G1 X90.543 Y85.098 E6.41095
G1 X92.485 Y84.030 E6.48306
G1 X94.546 Y83.215 E6.55517
G1 X96.693 Y82.663 E6.62729
G1 X98.892 Y82.385 E6.69940
G1 X101.108 Y82.385 E6.77151
G1 X103.307 Y82.663 E6.84362
G1 X105.454 Y83.215 E6.91573 F378.000
G1 X107.515 Y84.030 E6.98784
G1 X109.457 Y85.098 E7.05996
G1 X111.250 Y86.401 E7.13207
G1 X112.866 Y87.918 E7.20418
G1 X114.279 Y89.626 E7.27629
G1 X115.466 Y91.497 E7.34840
G1 X116.410 Y93.503 E7.42051
G1 X117.095 Y95.611 E7.49263
G1 X117.510 Y97.788 E7.56474
G1 X117.649 Y100.000 E7.63685
G1 X117.510 Y102.212 E7.70896
G1 X117.095 Y104.389 E7.78107
G1 X116.410 Y106.497 E7.85318
G1 X115.466 Y108.503 E7.92530
G1 X114.279 Y110.374 E7.99741
G1 X112.815 Y112.129 E8.07176
G1 F1800.000 E7.07176
G92 E0
G1 X103.729 Y82.931 F7800.000
M106 S255
G1 Z0.750 F7800.000
G1 X111.464 Y110.800 F7800.000
G1 E1.00000 F1800.000
G1 X110.040 Y112.137 E1.05526 F1421.452
G1 X108.440 Y113.299 E1.11122
G1 X106.707 Y114.252 E1.16719
G1 X104.867 Y114.981 E1.22316
G1 X102.951 Y115.472 E1.27913
G1 X100.989 Y115.720 E1.33510
G1 X99.011 Y115.720 E1.39107
G1 X97.048 Y115.472 E1.44704
G1 X95.133 Y114.980 E1.50301
G1 X93.293 Y114.252 E1.55897
G1 X91.560 Y113.299 E1.61494
G1 X89.960 Y112.137 E1.67091
G1 X88.518 Y110.783 E1.72688
G1 X87.257 Y109.258 E1.78285
G1 X86.197 Y107.588 E1.83882
G1 X85.355 Y105.799 E1.89478
G1 X84.743 Y103.917 E1.95075
G1 X84.373 Y101.974 E2.00672
G1 X84.249 Y100.000 E2.06269
G1 X84.373 Y98.026 E2.11866
G1 X84.743 Y96.083 E2.17463
G1 X85.355 Y94.201 E2.23059
G1 X86.197 Y92.412 E2.28656
G1 X87.257 Y90.741 E2.34253
G1 X88.518 Y89.217 E2.39850
G1 X89.960 Y87.863 E2.45447
G1 X91.560 Y86.701 E2.51043
G1 X93.293 Y85.748 E2.56640
G1 X95.133 Y85.019 E2.62237
G1 X97.049 Y84.528 E2.67834
G1 X99.011 Y84.280 E2.73431
G1 X101.088 Y84.292 E2.79309
G1 X102.952 Y84.528 E2.84622 F1421.452
G1 X104.868 Y85.020 E2.90219
G1 X106.707 Y85.748 E2.95816
G1 X108.440 Y86.701 E3.01413
G1 X110.040 Y87.863 E3.07010
G1 X111.482 Y89.217 E3.12607
G1 X112.743 Y90.742 E3.18204
G1 X113.803 Y92.412 E3.23800
G1 X114.645 Y94.201 E3.29397
G1 X115.257 Y96.083 E3.34994
G1 X115.627 Y98.026 E3.40591
G1 X115.717 Y99.449 E3.44626
G1 X115.786 Y99.449 E3.44823
G1 X115.627 Y101.974 E3.51981
G1 X115.257 Y103.917 E3.57578
G1 X114.645 Y105.799 E3.63174
G1 X113.803 Y107.588 E3.68771
G1 X112.743 Y109.259 E3.74368
G1 X111.514 Y110.744 E3.79824
G1 X111.117 Y110.440 F7800.000
G1 X109.721 Y111.751 E3.85242 F995.016
G1 X108.172 Y112.876 E3.90661
G1 X106.493 Y113.799 E3.96080
G1 X104.713 Y114.504 E4.01499
G1 X102.858 Y114.980 E4.06918
G1 X100.958 Y115.220 E4.12337
G1 X99.042 Y115.220 E4.17755
G1 X98.888 Y115.201 E4.18196
G1 X97.142 Y114.980 E4.23174
G1 X95.287 Y114.504 E4.28593
G1 X93.507 Y113.799 E4.34012
G1 X91.828 Y112.876 E4.39431
G1 X90.279 Y111.751 E4.44850
G1 X88.883 Y110.440 E4.50268
G1 X87.662 Y108.964 E4.55687
G1 X86.636 Y107.347 E4.61106
G1 X85.820 Y105.614 E4.66525
G1 X85.229 Y103.793 E4.71944
G1 X84.870 Y101.911 E4.77362
G1 X84.750 Y100.000 E4.82781
G1 X84.870 Y98.089 E4.88200
G1 X85.229 Y96.207 E4.93619
G1 X85.820 Y94.386 E4.99038
G1 X86.636 Y92.653 E5.04457
G1 X87.662 Y91.036 E5.09875
G1 X88.883 Y89.560 E5.15294
G1 X90.279 Y88.249 E5.20713
G1 X91.828 Y87.124 E5.26132
G1 X93.507 Y86.201 E5.31551
G1 X95.287 Y85.496 E5.36970
G1 X97.142 Y85.020 E5.42388
G1 X99.042 Y84.780 E5.47807
G1 X100.958 Y84.780 E5.53226 F995.016
G1 X102.858 Y85.020 E5.58645
G1 X104.713 Y85.496 E5.64064
G1 X106.493 Y86.201 E5.69483
G1 X108.172 Y87.124 E5.74901
G1 X109.721 Y88.249 E5.80320
G1 X109.850 Y88.370 E5.80821
G1 X111.117 Y89.560 E5.85739
G1 X112.338 Y91.036 E5.91158
G1 X113.364 Y92.653 E5.96577
G1 X114.180 Y94.386 E6.01995
G1 X114.771 Y96.207 E6.07414
G1 X115.084 Y97.844 E6.12129
G1 X115.130 Y98.089 E6.12833
G1 X115.254 Y99.949 E6.18109
G1 X115.130 Y101.911 E6.23672
G1 X114.771 Y103.793 E6.29091
G1 X114.180 Y105.614 E6.34510
G1 X113.364 Y107.347 E6.39928
G1 X112.338 Y108.964 E6.45347
G1 X111.165 Y110.382 E6.50554
G1 F1800.000 E5.50554
G92 E0
G1 X98.959 Y84.287 F7800.000
G1 X116.312 Y99.051 F7800.000
G1 E1.00000 F1800.000
G1 X116.688 Y99.051 E1.01063 F1421.452
G1 X116.748 Y100.000 E1.03754
G1 X116.616 Y102.099 E1.09704
G1 X116.221 Y104.165 E1.15655
G1 X115.571 Y106.165 E1.21606
G1 X114.676 Y108.068 E1.27557
G1 X113.549 Y109.844 E1.33507
G1 X112.208 Y111.464 E1.39458
G1 X110.675 Y112.904 E1.45409
G1 X108.974 Y114.140 E1.51360
G1 X107.131 Y115.154 E1.57311
G1 X105.175 Y115.928 E1.63261
G1 X103.138 Y116.451 E1.69212
G1 X101.052 Y116.714 E1.75163
G1 X98.948 Y116.714 E1.81114
G1 X96.862 Y116.451 E1.87064
G1 X94.825 Y115.928 E1.93015
G1 X92.869 Y115.154 E1.98966
G1 X91.026 Y114.140 E2.04917
G1 X89.325 Y112.904 E2.10867
G1 X87.792 Y111.464 E2.16818
G1 X86.451 Y109.844 E2.22769
G1 X85.324 Y108.068 E2.28720
G1 X84.429 Y106.165 E2.34670
G1 X83.779 Y104.165 E2.40621
G1 X83.384 Y102.099 E2.46572
G1 X83.252 Y100.000 E2.52523
G1 X83.385 Y97.901 E2.58474
G1 X83.779 Y95.835 E2.64424
G1 X84.429 Y93.835 E2.70375
G1 X85.324 Y91.932 E2.76326
G1 X86.451 Y90.156 E2.82276
G1 X87.792 Y88.536 E2.88227
G1 X89.325 Y87.096 E2.94178
G1 X91.026 Y85.860 E3.00129
G1 X92.869 Y84.846 E3.06079
G1 X94.825 Y84.072 E3.12030
G1 X96.862 Y83.549 E3.17981
G1 X98.948 Y83.285 E3.23932
G1 X101.052 Y83.285 E3.29883
G1 X103.138 Y83.549 E3.35833
G1 X105.175 Y84.072 E3.41784
G1 X107.131 Y84.846 E3.47735
G1 X108.974 Y85.860 E3.53686
G1 X110.675 Y87.096 E3.59636
G1 X112.208 Y88.536 E3.65587
G1 X113.549 Y90.156 E3.71538
G1 X114.676 Y91.932 E3.77489
G1 X115.571 Y93.835 E3.83439
G1 X116.221 Y95.835 E3.89390
G1 X116.616 Y97.901 E3.95341
G1 X116.681 Y98.949 E3.98313
G1 X116.186 Y98.949 E3.99714
G1 X116.124 Y97.963 E4.02510
G1 X115.742 Y95.958 E4.08285
G1 X115.111 Y94.017 E4.14060
G1 X114.242 Y92.170 E4.19834
G1 X113.149 Y90.447 E4.25609
G1 X111.848 Y88.874 E4.31384
G1 X110.360 Y87.477 E4.37159
G1 X108.709 Y86.278 E4.42934
G1 X106.920 Y85.294 E4.48709
G1 X105.022 Y84.543 E4.54483
G1 X103.045 Y84.035 E4.60258
G1 X101.021 Y83.780 E4.66033
G1 X98.980 Y83.780 E4.71808
G1 X96.853 Y84.061 E4.77876
G1 X94.978 Y84.543 E4.83356
G1 X93.080 Y85.294 E4.89130
G1 X91.291 Y86.278 E4.94905
G1 X89.640 Y87.477 E5.00680
G1 X88.153 Y88.874 E5.06455
G1 X86.851 Y90.447 E5.12230
G1 X85.758 Y92.170 E5.18005
G1 X84.889 Y94.017 E5.23780
G1 X84.258 Y95.958 E5.29554
G1 X83.876 Y97.963 E5.35329
G1 X83.748 Y100.000 E5.41103
G1 X83.876 Y102.037 E5.46879
G1 X84.258 Y104.042 E5.52654
G1 X84.889 Y105.983 E5.58429
G1 X85.758 Y107.830 E5.64203
G1 X86.851 Y109.553 E5.69978
G1 X88.153 Y111.126 E5.75753
G1 X89.640 Y112.523 E5.81528
G1 X91.291 Y113.722 E5.87303
G1 X93.080 Y114.706 E5.93078
G1 X94.978 Y115.457 E5.98852
G1 X96.955 Y115.965 E6.04627
G1 X98.979 Y116.220 E6.10402
G1 X101.021 Y116.220 E6.16177
G1 X103.045 Y115.965 E6.21952
G1 X105.022 Y115.457 E6.27727
G1 X106.920 Y114.706 E6.33502
G1 X108.709 Y113.722 E6.39277
G1 X110.360 Y112.523 E6.45051
G1 X111.847 Y111.126 E6.50826
G1 X113.149 Y109.553 E6.56601
G1 X114.242 Y107.830 E6.62376
G1 X115.111 Y105.983 E6.68151
G1 X115.742 Y104.042 E6.73925
G1 X116.124 Y102.037 E6.79700
G1 X116.307 Y99.126 E6.87954
G1 X117.185 Y98.996 F7800.000
G1 X117.249 Y100.000 E6.90801 F1421.452
G1 X117.113 Y102.162 E6.96930
G1 X116.707 Y104.290 E7.03058
G1 X116.037 Y106.350 E7.09187
G1 X115.115 Y108.310 E7.15316
G1 X113.954 Y110.138 E7.21445
G1 X112.574 Y111.807 E7.27573
G1 X110.995 Y113.290 E7.33702
G1 X109.242 Y114.563 E7.39831
G1 X107.344 Y115.607 E7.45960
G1 X105.330 Y116.404 E7.52088
G1 X103.232 Y116.943 E7.58217
G1 X101.083 Y117.214 E7.64346
G1 X98.917 Y117.214 E7.70475
G1 X96.768 Y116.943 E7.76604
G1 X94.670 Y116.404 E7.82732
G1 X92.656 Y115.607 E7.88861
G1 X90.758 Y114.563 E7.94990
G1 X89.005 Y113.290 E8.01119
G1 X87.426 Y111.807 E8.07247
G1 X86.046 Y110.138 E8.13376
G1 X84.885 Y108.310 E8.19505
G1 X83.963 Y106.350 E8.25634
G1 X83.293 Y104.290 E8.31763
G1 X82.887 Y102.162 E8.37891
G1 X82.751 Y100.000 E8.44020
G1 X82.887 Y97.838 E8.50149
G1 X83.293 Y95.710 E8.56278
G1 X83.963 Y93.650 E8.62406
G1 X84.885 Y91.690 E8.68535
G1 X86.046 Y89.862 E8.74664
G1 X87.426 Y88.193 E8.80793
G1 X89.005 Y86.710 E8.86921
G1 X90.758 Y85.437 E8.93050
G1 X92.656 Y84.393 E8.99179
G1 X94.670 Y83.596 E9.05308
G1 X96.768 Y83.057 E9.11437
