; generated by Slic3r 1.2.6-dev on 2015-01-29 at 22:21:26

; external perimeters extrusion width = 0.50mm
; perimeters extrusion width = 0.50mm
; infill extrusion width = 0.50mm
; solid infill extrusion width = 0.40mm
; top infill extrusion width = 0.50mm

M190 S90 ; set bed temperature
M104 S225 ; set temperature
G28 ; home all axes
G92 E0.0 ; reset extruder
M109 S225 ; wait for temperature to be reached
G21 ; set units to millimeters
G90 ; use absolute coordinates
M83 ; use relative distances for extrusion
G1 E-1.40000 F1800.00000
G1 Z0.300 F7800.000
G1 X61.141 Y61.561 F7800.000
G1 E1.40000 F1800.00000
M204 S500
G1 X63.430 Y59.412 E0.21183 F1080.000
G1 X64.933 Y58.169 E0.13162
G1 X67.473 Y56.323 E0.21191
G1 X69.120 Y55.278 E0.13158
G1 X71.872 Y53.765 E0.21188
G1 X73.637 Y52.935 E0.13161
G1 X76.556 Y51.779 E0.21188
G1 X78.411 Y51.176 E0.13157
G1 X81.452 Y50.395 E0.21188
G1 X83.368 Y50.030 E0.13160
G1 X86.460 Y49.639 E0.21025
G1 X88.430 Y49.514 E0.13323
G1 X91.570 Y49.514 E0.21183
G1 X93.517 Y49.636 E0.13164
G1 X96.632 Y50.030 E0.21183 F1080.000
G1 X98.548 Y50.395 E0.13164
G1 X101.590 Y51.176 E0.21190
G1 X103.444 Y51.779 E0.13155
G1 X106.363 Y52.935 E0.21184
G1 X108.129 Y53.765 E0.13165
G1 X110.880 Y55.278 E0.21184
G1 X112.527 Y56.323 E0.13165
G1 X115.066 Y58.167 E0.21169
G1 X116.570 Y59.412 E0.13176
G1 X118.861 Y61.563 E0.21200
G1 X120.195 Y62.984 E0.13150
G1 X122.181 Y65.385 E0.21025
G1 X123.342 Y66.981 E0.13320
G1 X125.025 Y69.632 E0.21190
G1 X125.965 Y71.342 E0.13160
G1 X127.292 Y74.161 E0.21027
G1 X128.020 Y75.996 E0.13318
G1 X128.990 Y78.982 E0.21183
G1 X129.475 Y80.872 E0.13165
G1 X130.063 Y83.956 E0.21184
G1 X130.308 Y85.891 E0.13166
G1 X130.505 Y89.025 E0.21183
G1 X130.505 Y90.975 E0.13162
G1 X130.308 Y94.109 E0.21183
G1 X130.063 Y96.044 E0.13164
G1 X129.475 Y99.128 E0.21185
G1 X128.990 Y101.018 E0.13165
G1 X128.020 Y104.004 E0.21183
G1 X127.302 Y105.818 E0.13161
G1 X125.965 Y108.658 E0.21184
G1 X125.025 Y110.368 E0.13165
G1 X123.342 Y113.019 E0.21185
G1 X122.196 Y114.597 E0.13156
G1 X120.195 Y117.016 E0.21189
G1 X118.843 Y118.454 E0.13317
G1 X116.570 Y120.588 E0.21031
G1 X115.068 Y121.831 E0.13160
G1 X112.527 Y123.677 E0.21185
G1 X110.880 Y124.722 E0.13165
G1 X108.129 Y126.235 E0.21184
G1 X106.364 Y127.065 E0.13161
G1 X103.444 Y128.221 E0.21189
G1 X101.590 Y128.824 E0.13157
G1 X98.548 Y129.605 E0.21187
G1 X96.632 Y129.970 E0.13164
G1 X93.517 Y130.364 E0.21184
G1 X91.570 Y130.486 E0.13164
G1 X88.430 Y130.486 E0.21183
G1 X86.483 Y130.364 E0.13164
G1 X83.368 Y129.970 E0.21183
G1 X81.452 Y129.605 E0.13165
G1 X78.411 Y128.824 E0.21184
G1 X76.556 Y128.221 E0.13161
G1 X73.637 Y127.065 E0.21184
G1 X71.871 Y126.235 E0.13166
G1 X69.120 Y124.722 E0.21184
G1 X67.473 Y123.677 E0.13163
G1 X64.933 Y121.831 E0.21186
G1 X63.430 Y120.588 E0.13162
G1 X61.141 Y118.439 E0.21183
G1 X59.805 Y117.016 E0.13166
G1 X57.804 Y114.597 E0.21184
G1 X56.658 Y113.019 E0.13161
G1 X54.975 Y110.368 E0.21184
G1 X54.035 Y108.659 E0.13165
G1 X52.698 Y105.818 E0.21184
G1 X51.973 Y103.982 E0.13316
G1 X51.010 Y101.018 E0.21029
G1 X50.525 Y99.129 E0.13162
G1 X49.937 Y96.044 E0.21186
G1 X49.692 Y94.109 E0.13165
G1 X49.495 Y90.975 E0.21183
G1 X49.495 Y89.025 E0.13162
G1 X49.692 Y85.891 E0.21183
G1 X49.937 Y83.956 E0.13165
G1 X50.525 Y80.872 E0.21184
G1 X51.010 Y78.982 E0.13165
G1 X51.980 Y75.996 E0.21184
G1 X52.698 Y74.182 E0.13162
G1 X54.035 Y71.342 E0.21183
G1 X54.975 Y69.632 E0.13166
G1 X56.658 Y66.981 E0.21184
G1 X57.804 Y65.403 E0.13161
G1 X59.806 Y62.983 E0.21191
G1 X61.100 Y61.605 E0.12754
M204 S1000
G1 E-1.40000 F1800.00000
G1 X62.749 Y63.361 F7800.000
G1 E1.40000 F1800.00000
M204 S500
G1 X65.381 Y60.889 E0.24364 F1080.000
G1 X66.017 Y60.363 E0.05568
G1 X69.225 Y58.033 E0.26755
G1 X69.921 Y57.591 E0.05562
G1 X73.395 Y55.681 E0.26751
G1 X74.142 Y55.330 E0.05564
G1 X77.828 Y53.870 E0.26750
G1 X78.612 Y53.616 E0.05562
G1 X82.452 Y52.630 E0.26750
G1 X83.262 Y52.475 E0.05564
G1 X86.762 Y52.033 E0.23808
G1 X87.195 Y51.978 E0.02944
G1 X88.018 Y51.927 E0.05563
G1 X91.982 Y51.927 E0.26748
G1 X92.805 Y51.978 E0.05565
G1 X96.738 Y52.475 E0.26748 F1080.000
G1 X97.549 Y52.630 E0.05566
G1 X101.389 Y53.616 E0.26753
G1 X102.173 Y53.871 E0.05561
G1 X105.859 Y55.330 E0.26747
G1 X106.605 Y55.681 E0.05566
G1 X110.079 Y57.591 E0.26746
G1 X110.775 Y58.033 E0.05568
G1 X113.648 Y60.120 E0.23961
G1 X113.986 Y60.366 E0.02819
G1 X114.619 Y60.890 E0.05544
G1 X117.509 Y63.604 E0.26748
G1 X118.073 Y64.204 E0.05559
G1 X120.322 Y66.923 E0.23805
G1 X120.600 Y67.259 E0.02942
G1 X121.084 Y67.926 E0.05563
G1 X123.209 Y71.273 E0.26752
G1 X123.606 Y71.996 E0.05564
G1 X125.293 Y75.582 E0.26738
G1 X125.597 Y76.349 E0.05570
G1 X126.822 Y80.120 E0.26750
G1 X127.028 Y80.919 E0.05566
G1 X127.770 Y84.812 E0.26747
G1 X127.874 Y85.631 E0.05568
G1 X128.123 Y89.587 E0.26744
G1 X128.123 Y90.413 E0.05574
G1 X127.874 Y94.370 E0.26749
G1 X127.770 Y95.190 E0.05577
G1 X127.028 Y99.081 E0.26733
G1 X126.822 Y99.880 E0.05566
G1 X125.597 Y103.650 E0.26747
G1 X125.294 Y104.417 E0.05564
G1 X123.606 Y108.004 E0.26749
G1 X123.208 Y108.727 E0.05566
G1 X121.084 Y112.074 E0.26748
G1 X120.600 Y112.741 E0.05562
G1 X118.072 Y115.796 E0.26753
G1 X117.508 Y116.398 E0.05568
G1 X114.618 Y119.111 E0.26745
G1 X113.983 Y119.637 E0.05564
G1 X110.775 Y121.967 E0.26751
G1 X110.078 Y122.409 E0.05569
G1 X106.605 Y124.319 E0.26743
G1 X105.859 Y124.670 E0.05564
G1 X102.173 Y126.129 E0.26751
G1 X101.389 Y126.384 E0.05562
G1 X97.549 Y127.370 E0.26751
G1 X96.739 Y127.525 E0.05565
G1 X92.805 Y128.022 E0.26749
G1 X91.982 Y128.073 E0.05565
G1 X88.018 Y128.073 E0.26750
G1 X87.194 Y128.022 E0.05567
G1 X83.259 Y127.524 E0.26763
G1 X82.444 Y127.369 E0.05599
G1 X78.612 Y126.384 E0.26699
G1 X77.827 Y126.129 E0.05564
G1 X74.141 Y124.670 E0.26750
G1 X73.395 Y124.319 E0.05568
G1 X69.921 Y122.409 E0.26746
G1 X69.225 Y121.967 E0.05565
G1 X66.017 Y119.637 E0.26751
G1 X65.381 Y119.111 E0.05567
G1 X62.492 Y116.397 E0.26744
G1 X61.927 Y115.796 E0.05567
G1 X59.400 Y112.741 E0.26748
G1 X58.916 Y112.074 E0.05564
G1 X56.792 Y108.727 E0.26749
G1 X56.394 Y108.004 E0.05567
G1 X54.706 Y104.417 E0.26746
G1 X54.403 Y103.651 E0.05562
G1 X53.178 Y99.880 E0.26751
G1 X52.972 Y99.081 E0.05565
G1 X52.230 Y95.187 E0.26750
G1 X52.126 Y94.369 E0.05566
G1 X51.877 Y90.412 E0.26748
G1 X51.877 Y89.588 E0.05564
G1 X52.126 Y85.632 E0.26745
G1 X52.230 Y84.813 E0.05568
G1 X52.972 Y80.919 E0.26747
G1 X53.178 Y80.120 E0.05568
G1 X54.403 Y76.350 E0.26749
G1 X54.706 Y75.583 E0.05565
G1 X56.394 Y71.996 E0.26748
G1 X56.792 Y71.273 E0.05566
G1 X58.916 Y67.926 E0.26748
G1 X59.400 Y67.259 E0.05564
G1 X61.928 Y64.203 E0.26754
G1 X62.492 Y63.602 E0.05563
G1 X62.705 Y63.402 E0.01973
M204 S1000
G1 X63.072 Y63.793 F7800.000
M204 S500
G1 X65.736 Y61.291 E0.24655 F1080.000
G1 X66.346 Y60.787 E0.05341
G1 X69.526 Y58.476 E0.26527
G1 X70.194 Y58.052 E0.05335
G1 X73.639 Y56.158 E0.26524
G1 X74.354 Y55.822 E0.05337
G1 X78.009 Y54.375 E0.26523
G1 X78.761 Y54.130 E0.05335
G1 X82.172 Y53.255 E0.23762
G1 X82.569 Y53.153 E0.02761
G1 X83.345 Y53.005 E0.05337
G1 X87.246 Y52.512 E0.26524
G1 X88.035 Y52.462 E0.05336
G1 X91.965 Y52.462 E0.26521
G1 X92.755 Y52.512 E0.05338 F1080.000
G1 X96.655 Y53.005 E0.26521
G1 X97.432 Y53.153 E0.05339
G1 X101.239 Y54.131 E0.26525
G1 X101.991 Y54.375 E0.05334
G1 X105.646 Y55.822 E0.26520
G1 X106.362 Y56.159 E0.05339
G1 X109.806 Y58.052 E0.26519
G1 X110.474 Y58.476 E0.05341
G1 X113.658 Y60.789 E0.26552
G1 X114.265 Y61.292 E0.05317
G1 X117.130 Y63.983 E0.26521
G1 X117.671 Y64.559 E0.05332
G1 X119.909 Y67.264 E0.23692
G1 X120.176 Y67.587 E0.02827
G1 X120.641 Y68.227 E0.05336
G1 X122.747 Y71.546 E0.26525
G1 X123.128 Y72.239 E0.05336
G1 X124.801 Y75.794 E0.26512
G1 X125.093 Y76.531 E0.05343
G1 X126.308 Y80.269 E0.26523
G1 X126.505 Y81.036 E0.05339
G1 X127.241 Y84.896 E0.26520
G1 X127.340 Y85.682 E0.05340
G1 X127.587 Y89.604 E0.26517
G1 X127.587 Y90.396 E0.05347
G1 X127.340 Y94.319 E0.26522
G1 X127.241 Y95.106 E0.05349
G1 X126.505 Y98.965 E0.26507
G1 X126.308 Y99.731 E0.05339
G1 X125.093 Y103.469 E0.26520
G1 X124.802 Y104.204 E0.05337
G1 X123.128 Y107.761 E0.26521
G1 X122.747 Y108.454 E0.05339
G1 X120.641 Y111.773 E0.26521
G1 X120.176 Y112.413 E0.05335
G1 X117.670 Y115.442 E0.26526
G1 X117.129 Y116.019 E0.05341
G1 X114.264 Y118.709 E0.26518
G1 X113.654 Y119.213 E0.05336
G1 X110.474 Y121.524 E0.26524
G1 X109.806 Y121.948 E0.05342
G1 X106.362 Y123.841 E0.26516
G1 X105.646 Y124.178 E0.05337
G1 X101.991 Y125.625 E0.26524
G1 X101.239 Y125.870 E0.05335
G1 X97.432 Y126.847 E0.26523
G1 X96.655 Y126.995 E0.05338
G1 X92.755 Y127.488 E0.26522
G1 X91.965 Y127.538 E0.05338
G1 X88.035 Y127.538 E0.26522
G1 X87.245 Y127.488 E0.05340
G1 X83.343 Y126.995 E0.26535
G1 X82.561 Y126.846 E0.05370
G1 X78.761 Y125.870 E0.26473
G1 X78.009 Y125.625 E0.05337
G1 X74.354 Y124.178 E0.26523
G1 X73.638 Y123.841 E0.05341
G1 X70.194 Y121.948 E0.26519
G1 X69.526 Y121.524 E0.05338
G1 X66.346 Y119.213 E0.26524
G1 X65.736 Y118.709 E0.05340
G1 X62.871 Y116.018 E0.26517
G1 X62.329 Y115.442 E0.05340
G1 X59.824 Y112.413 E0.26521
G1 X59.359 Y111.773 E0.05337
G1 X57.253 Y108.454 E0.26521
G1 X56.872 Y107.761 E0.05339
G1 X55.198 Y104.205 E0.26519
G1 X54.907 Y103.469 E0.05335
G1 X53.692 Y99.731 E0.26524
G1 X53.495 Y98.964 E0.05338
G1 X53.417 Y98.553 E0.02827
G1 X52.759 Y95.103 E0.23695
G1 X52.660 Y94.318 E0.05339
G1 X52.413 Y90.395 E0.26521
G1 X52.413 Y89.605 E0.05337
G1 X52.660 Y85.682 E0.26518
G1 X52.759 Y84.897 E0.05341
G1 X53.495 Y81.036 E0.26520
G1 X53.692 Y80.269 E0.05340
G1 X54.907 Y76.531 E0.26522
G1 X55.198 Y75.796 E0.05338
G1 X56.872 Y72.239 E0.26521
G1 X57.253 Y71.546 E0.05339
G1 X59.359 Y68.227 E0.26521
G1 X59.824 Y67.587 E0.05337
G1 X62.330 Y64.558 E0.26526
G1 X63.028 Y63.834 E0.06788
M204 S1000
G1 X63.395 Y64.224 F7800.000
M204 S500
G1 X66.090 Y61.693 E0.24947 F1080.000
G1 X66.674 Y61.210 E0.05113
G1 X69.827 Y58.919 E0.26300
G1 X70.467 Y58.513 E0.05108
G1 X73.882 Y56.636 E0.26296
G1 X74.567 Y56.313 E0.05110
G1 X78.191 Y54.879 E0.26296
G1 X78.911 Y54.645 E0.05108
G1 X82.685 Y53.676 E0.26295
G1 X83.429 Y53.534 E0.05109
G1 X86.897 Y53.096 E0.23580
G1 X87.296 Y53.045 E0.02716
G1 X88.052 Y52.998 E0.05109
G1 X91.949 Y52.998 E0.26293
G1 X92.704 Y53.045 E0.05111
G1 X96.571 Y53.534 E0.26294 F1080.000
G1 X97.315 Y53.676 E0.05111
G1 X101.090 Y54.645 E0.26298
G1 X101.810 Y54.879 E0.05107
G1 X105.433 Y56.314 E0.26293
G1 X106.118 Y56.636 E0.05111
G1 X109.533 Y58.513 E0.26292
G1 X110.173 Y58.919 E0.05113
G1 X113.000 Y60.974 E0.23580
G1 X113.329 Y61.213 E0.02743
G1 X113.910 Y61.694 E0.05091
G1 X116.751 Y64.361 E0.26294
G1 X117.269 Y64.913 E0.05105
G1 X119.496 Y67.606 E0.23578
G1 X119.753 Y67.916 E0.02715
G1 X120.198 Y68.528 E0.05109
G1 X122.286 Y71.819 E0.26298
G1 X122.651 Y72.482 E0.05109
G1 X124.310 Y76.007 E0.26285
G1 X124.589 Y76.712 E0.05115
G1 X125.793 Y80.419 E0.26296
G1 X125.982 Y81.152 E0.05112
G1 X126.712 Y84.980 E0.26293
G1 X126.807 Y85.732 E0.05113
G1 X127.051 Y89.621 E0.26290
G1 X127.051 Y90.379 E0.05119
G1 X126.807 Y94.269 E0.26295
G1 X126.712 Y95.022 E0.05122
G1 X125.982 Y98.848 E0.26280
G1 X125.793 Y99.581 E0.05112
G1 X124.589 Y103.287 E0.26293
G1 X124.310 Y103.992 E0.05110
G1 X122.651 Y107.518 E0.26294
G1 X122.286 Y108.182 E0.05111
G1 X120.198 Y111.472 E0.26294
G1 X119.753 Y112.084 E0.05108
G1 X117.269 Y115.087 E0.26298
G1 X116.750 Y115.640 E0.05113
G1 X113.909 Y118.307 E0.26291
G1 X113.326 Y118.790 E0.05109
G1 X110.173 Y121.081 E0.26296
G1 X109.533 Y121.487 E0.05114
G1 X106.119 Y123.364 E0.26289
G1 X105.433 Y123.686 E0.05110
G1 X101.810 Y125.121 E0.26297
G1 X101.090 Y125.355 E0.05108
G1 X97.315 Y126.324 E0.26296
G1 X96.571 Y126.466 E0.05111
G1 X92.704 Y126.955 E0.26295
G1 X91.949 Y127.002 E0.05111
G1 X88.051 Y127.002 E0.26295
G1 X87.295 Y126.955 E0.05113
G1 X83.427 Y126.466 E0.26307
G1 X82.679 Y126.323 E0.05142
G1 X78.911 Y125.355 E0.26248
G1 X78.190 Y125.121 E0.05110
G1 X74.567 Y123.686 E0.26295
G1 X73.881 Y123.364 E0.05114
G1 X70.467 Y121.486 E0.26292
G1 X69.827 Y121.081 E0.05110
G1 X66.674 Y118.790 E0.26297
G1 X66.090 Y118.307 E0.05113
G1 X63.250 Y115.640 E0.26290
G1 X62.731 Y115.087 E0.05112
G1 X60.247 Y112.085 E0.26294
G1 X59.802 Y111.472 E0.05110
G1 X57.714 Y108.182 E0.26294
G1 X57.349 Y107.518 E0.05112
G1 X55.690 Y103.992 E0.26292
G1 X55.411 Y103.288 E0.05108
G1 X54.207 Y99.581 E0.26297
G1 X54.018 Y98.848 E0.05111
G1 X53.288 Y95.019 E0.26295
G1 X53.193 Y94.268 E0.05112
G1 X52.949 Y90.379 E0.26294
G1 X52.949 Y89.621 E0.05110
G1 X53.193 Y85.733 E0.26291
G1 X53.288 Y84.981 E0.05113
G1 X54.018 Y81.153 E0.26293
G1 X54.207 Y80.419 E0.05113
G1 X55.411 Y76.713 E0.26295
G1 X55.690 Y76.008 E0.05110
G1 X57.349 Y72.482 E0.26294
G1 X57.714 Y71.818 E0.05112
G1 X59.802 Y68.528 E0.26294
G1 X60.247 Y67.915 E0.05110
G1 X62.732 Y64.912 E0.26299
G1 X63.351 Y64.265 E0.06043
M204 S1000
G1 X63.718 Y64.656 F7800.000
M204 S500
G1 X66.445 Y62.095 E0.25238 F1080.000
G1 X67.003 Y61.634 E0.04886
G1 X70.129 Y59.362 E0.26073
G1 X70.739 Y58.975 E0.04881
G1 X74.125 Y57.113 E0.26069
G1 X74.780 Y56.805 E0.04883
G1 X78.372 Y55.383 E0.26069
G1 X79.060 Y55.160 E0.04881
G1 X82.439 Y54.292 E0.23535
G1 X82.802 Y54.199 E0.02533
G1 X83.513 Y54.063 E0.04882
G1 X87.346 Y53.579 E0.26069
G1 X88.068 Y53.533 E0.04882
G1 X91.932 Y53.533 E0.26066
G1 X92.654 Y53.579 E0.04884 F1080.000
G1 X96.487 Y54.063 E0.26067
G1 X97.198 Y54.199 E0.04884
G1 X100.940 Y55.160 E0.26071
G1 X101.628 Y55.383 E0.04880
G1 X105.220 Y56.805 E0.26066
G1 X105.875 Y57.114 E0.04884
G1 X109.260 Y58.975 E0.26065
G1 X109.872 Y59.363 E0.04886
G1 X113.000 Y61.636 E0.26095
G1 X113.556 Y62.096 E0.04865
G1 X116.372 Y64.740 E0.26067
G1 X116.867 Y65.267 E0.04878
G1 X119.084 Y67.947 E0.23464
G1 X119.329 Y68.244 E0.02601
G1 X119.755 Y68.829 E0.04882
G1 X121.825 Y72.092 E0.26070
G1 X122.174 Y72.726 E0.04882
G1 X123.818 Y76.220 E0.26058
G1 X124.085 Y76.894 E0.04888
G1 X125.279 Y80.568 E0.26069
G1 X125.459 Y81.269 E0.04884
G1 X126.183 Y85.064 E0.26066
G1 X126.273 Y85.782 E0.04886
G1 X126.516 Y89.637 E0.26063
G1 X126.516 Y90.362 E0.04892
G1 X126.273 Y94.218 E0.26067
G1 X126.182 Y94.938 E0.04894
G1 X125.459 Y98.731 E0.26054
G1 X125.279 Y99.432 E0.04885
G1 X124.085 Y103.106 E0.26066
G1 X123.818 Y103.779 E0.04883
G1 X122.173 Y107.274 E0.26067
G1 X121.825 Y107.909 E0.04884
G1 X119.755 Y111.171 E0.26067
G1 X119.329 Y111.756 E0.04881
G1 X116.867 Y114.733 E0.26071
G1 X116.371 Y115.261 E0.04886
G1 X113.555 Y117.905 E0.26064
G1 X112.997 Y118.366 E0.04882
G1 X109.872 Y120.637 E0.26069
G1 X109.260 Y121.026 E0.04887
G1 X105.875 Y122.886 E0.26063
G1 X105.221 Y123.194 E0.04882
G1 X101.628 Y124.617 E0.26069
G1 X100.940 Y124.840 E0.04881
G1 X97.198 Y125.801 E0.26069
G1 X96.487 Y125.937 E0.04884
G1 X92.654 Y126.421 E0.26068
G1 X91.932 Y126.467 E0.04884
G1 X88.068 Y126.467 E0.26068
G1 X87.346 Y126.421 E0.04885
G1 X83.511 Y125.937 E0.26079
G1 X82.796 Y125.800 E0.04913
G1 X79.060 Y124.840 E0.26023
G1 X78.372 Y124.617 E0.04883
G1 X74.780 Y123.195 E0.26068
G1 X74.124 Y122.886 E0.04886
G1 X70.739 Y121.025 E0.26065
G1 X70.128 Y120.637 E0.04883
G1 X67.003 Y118.366 E0.26069
G1 X66.445 Y117.905 E0.04886
G1 X63.629 Y115.261 E0.26063
G1 X63.133 Y114.733 E0.04885
G1 X60.671 Y111.756 E0.26067
G1 X60.245 Y111.171 E0.04883
G1 X58.175 Y107.909 E0.26067
G1 X57.827 Y107.274 E0.04885
G1 X56.182 Y103.779 E0.26065
G1 X55.915 Y103.106 E0.04881
G1 X54.721 Y99.432 E0.26070
G1 X54.541 Y98.731 E0.04884
G1 X53.817 Y94.936 E0.26068
G1 X53.727 Y94.217 E0.04885
G1 X53.484 Y90.362 E0.26066
G1 X53.484 Y89.638 E0.04883
G1 X53.727 Y85.783 E0.26064
G1 X53.817 Y85.064 E0.04886
G1 X54.541 Y81.270 E0.26066
G1 X54.721 Y80.568 E0.04886
G1 X55.915 Y76.894 E0.26067
G1 X56.182 Y76.221 E0.04883
G1 X57.827 Y72.726 E0.26067
G1 X58.175 Y72.091 E0.04885
G1 X60.245 Y68.829 E0.26067
G1 X60.671 Y68.244 E0.04883
G1 X63.134 Y65.267 E0.26072
G1 X63.674 Y64.697 E0.05299
M204 S1000
G1 X64.041 Y65.087 F7800.000
M204 S500
G1 X66.799 Y62.497 E0.25530 F1080.000
G1 X67.331 Y62.057 E0.04659
G1 X70.430 Y59.806 E0.25845
G1 X71.012 Y59.436 E0.04654
G1 X74.368 Y57.591 E0.25842
G1 X74.993 Y57.297 E0.04656
G1 X78.554 Y55.887 E0.25842
